!!!!SEGMENT: pl-cz--iii-460--002_kuci-mateusz--symfonia-f-adagio.krn
!!!cenid: 17xx:940
!!!COM: Kuci, Mateusz
!!!COM-rismID: pe30017582
!!!CDT:
!!!CNT:
!!!OPR: Symfonia F
!!!OTL: Adagio
!!!OMV: 002
!!!PDT:
!!!AGN: Secular
!!!SMS-siglum: PL-CZ
!!!SMS-shelfmark: III-460
!!!SMS-shelfwork: 001-002 M
!!!SMS-variant:
!!!SMS-altvar:
!!!NIFC-rismSourceID: 300000666
!!!NIFC-islandoraID: pl-cz:38658
!!!URL-pdf-islandora: https://repozytorium.nifc.pl/islandora/object/pl-cz%3A38658/datastream/PDF/view
!!!URL-scan:
!!!ONB-nifc: UWAGA: części Symfonii: Allegro, Adagio, Presto
!!!AIN: 1 cbass 2 cor 1 fagot 2 oboe 1 viola 2 violn
!!!key: B-
**kern	**dynam	**kern	**dynam	**kern	**dynam	**kern	**dynam	**kern	**dynam	**kern	**dynam	**kern	**dynam	**kern	**dynam	**kern	**dynam
*group3	*	*group3	*	*group3	*	*group3	*	*group2	*	*group2	*	*group1	*	*group1	*	*group1	*
*part9	*part9	*part8	*part8	*part7	*part7	*part6	*part6	*part5	*part5	*part4	*part4	*part3	*part3	*part2	*part2	*part1	*part1
*staff9	*	*staff8	*	*staff7	*	*staff6	*	*staff5	*	*staff4	*	*staff3	*	*staff2	*	*staff1	*
*I"Baſso	*	*I"Viola	*	*I"Violino Secondo	*	*I"Violino Primo	*	*I"Cornu Secondo Toni F.	*	*I"Cornu Primo Toni F	*	*I"Fagotto Solo	*	*I"Oboe Secondo	*	*I"Oboa Primo	*
*I'cb	*	*I'vla	*	*I'vl 2	*	*I'vl 1	*	*I'cor 2 in F	*	*I'cor 1 in F	*	*I'fag	*	*I'ob 2	*	*I'ob 1	*
*Icbass	*	*Iviola	*	*Ivioln	*	*Ivioln	*	*Icor	*	*Icor	*	*Ifagot	*	*Ioboe	*	*Ioboe	*
*ICstr	*	*ICstr	*	*ICstr	*	*ICstr	*	*ICbras	*	*ICbras	*	*ICww	*	*ICww	*	*ICww	*
*clefF4	*	*clefC3	*	*clefG2	*	*clefG2	*	*clefG2	*	*clefG2	*	*clefF4	*	*clefG2	*	*clefG2	*
*ITrd0c0	*	*	*	*	*	*	*	*ITrd1c2	*	*ITrd1c2	*	*	*	*	*	*	*
*k[b-e-]	*	*k[b-e-]	*	*k[b-e-]	*	*k[b-e-]	*	*k[b-e-]	*	*k[b-e-]	*	*k[b-e-]	*	*k[b-e-]	*	*k[b-e-]	*
*B-:	*	*B-:	*	*B-:	*	*B-:	*	*B-:	*	*B-:	*	*B-:	*	*B-:	*	*B-:	*
*M2/2	*	*M2/2	*	*M2/2	*	*M2/2	*	*M2/2	*	*M2/2	*	*M2/2	*	*M2/2	*	*M2/2	*
*met(c|)	*	*met(c|)	*	*met(c|)	*	*met(c|)	*	*met(c|)	*	*met(c|)	*	*met(c|)	*	*met(c|)	*	*met(c|)	*
*all\right	*	*all\right	*	*all\right	*	*all\right	*	*all\right	*	*all\right	*	*all\right	*	*all\right	*	*all\right	*
=1	=1	=1	=1	=1	=1	=1	=1	=1	=1	=1	=1	=1	=1	=1	=1	=1	=1
*	*	*	*	*Xtuplet	*	*2\right	*	*	*	*	*	*2\right	*	*	*	*	*
!	!	!	!	!	!	!	!	!LO:TX:a:t=Toni B.	!	!LO:TX:a:t=Toni B.	!	!	!	!	!	!	!
!LO:TX:b:t=pizzicato	!	!	!	!	!	!	!	!LO:TX:a:t=8	!	!LO:TX:a:t=8	!	!	!	!LO:TX:a:t=8	!	!LO:TX:a:t=8	!
!LO:TX:a:B:t=Adagio	!	!LO:TX:a:B:t=Adagio	!LO:DY:t=pia	!LO:TX:a:B:t=Adagio	!LO:DY:t=pia	!LO:TX:a:B:t=Adagio	!	!LO:TX:a:B:t=Adagio	!	!LO:TX:a:B:t=Adagio	!	!LO:TX:a:B:t=Adagio	!LO:DY:t=p&colon;	!LO:TX:a:B:t=Adagio	!	!LO:TX:a:B:t=Adagio	!
4BB-/	.	(1d	p	12B-/L	p	2.ff\	pp	00r	.	00r	.	2.f\	p	00r	.	00r	.
.	.	.	.	12d/	.	.	.	.	.	.	.	.	.	.	.	.	.
.	.	.	.	12f/J	.	.	.	.	.	.	.	.	.	.	.	.	.
4r	.	.	.	12f/L	.	.	.	.	.	.	.	.	.	.	.	.	.
.	.	.	.	12f/	.	.	.	.	.	.	.	.	.	.	.	.	.
.	.	.	.	12f/J	.	.	.	.	.	.	.	.	.	.	.	.	.
4BB-/	.	.	.	12B-/L	.	.	.	.	.	.	.	.	.	.	.	.	.
.	.	.	.	12d/	.	.	.	.	.	.	.	.	.	.	.	.	.
.	.	.	.	12f/J	.	.	.	.	.	.	.	.	.	.	.	.	.
4r	.	.	.	12f/L	.	4b-/	.	.	.	.	.	4B-\	.	.	.	.	.
.	.	.	.	12f/	.	.	.	.	.	.	.	.	.	.	.	.	.
.	.	.	.	12f/J	.	.	.	.	.	.	.	.	.	.	.	.	.
=2	=2	=2	=2	=2	=2	=2	=2	=2	=2	=2	=2	=2	=2	=2	=2	=2	=2
.	.	.	.	.	.	(8qqcc/	.	.	.	.	.	8qqc/	.	.	.	.	.
4C/	.	1e-	.	12c/L	.	8b-/L)	.	.	.	.	.	8B-\L	.	.	.	.	.
.	.	.	.	12e-/	.	.	.	.	.	.	.	.	.	.	.	.	.
.	.	.	.	.	.	8a/J	.	.	.	.	.	8A\J	.	.	.	.	.
.	.	.	.	12f/J	.	.	.	.	.	.	.	.	.	.	.	.	.
4r	.	.	.	12f/L	.	4a/	.	.	.	.	.	4A\	.	.	.	.	.
.	.	.	.	12f/	.	.	.	.	.	.	.	.	.	.	.	.	.
.	.	.	.	12f/J	.	.	.	.	.	.	.	.	.	.	.	.	.
4C/	.	.	.	12c/L	.	2r	.	.	.	.	.	2r	.	.	.	.	.
.	.	.	.	12e-/	.	.	.	.	.	.	.	.	.	.	.	.	.
.	.	.	.	12f/J	.	.	.	.	.	.	.	.	.	.	.	.	.
*	*	*	*	*tremolo	*	*	*	*	*	*	*	*	*	*	*	*	*
!	!	!	!	!LO:N:TREM:vis=4.	!	!	!	!	!	!	!	!	!	!	!	!	!
4r	.	.	.	12f/L	.	.	.	.	.	.	.	.	.	.	.	.	.
.	.	.	.	12f/	.	.	.	.	.	.	.	.	.	.	.	.	.
.	.	.	.	12f/J	.	.	.	.	.	.	.	.	.	.	.	.	.
*	*	*	*	*Xtremolo	*	*	*	*	*	*	*	*	*	*	*	*	*
=3	=3	=3	=3	=3	=3	=3	=3	=3	=3	=3	=3	=3	=3	=3	=3	=3	=3
.	.	.	.	.	.	8qqcc/	.	.	.	.	.	.	.	.	.	.	.
*	*	*2\right	*	*	*	*	*	*	*	*	*	*	*	*	*	*	*
4FF/	.	2.e-\)	.	12A/L	.	2.ccc\	.	.	.	.	.	4.c\	.	.	.	.	.
.	.	.	.	12c/	.	.	.	.	.	.	.	.	.	.	.	.	.
.	.	.	.	12f/J	.	.	.	.	.	.	.	.	.	.	.	.	.
*	*	*	*	*tremolo	*	*	*	*	*	*	*	*	*	*	*	*	*
!	!	!	!	!LO:N:TREM:vis=4.	!	!	!	!	!	!	!	!	!	!	!	!	!
4r	.	.	.	12f/L	.	.	.	.	.	.	.	.	.	.	.	.	.
.	.	.	.	12f/	.	.	.	.	.	.	.	.	.	.	.	.	.
.	.	.	.	.	.	.	.	.	.	.	.	8A\	.	.	.	.	.
.	.	.	.	12f/J	.	.	.	.	.	.	.	.	.	.	.	.	.
*	*	*	*	*Xtremolo	*	*	*	*	*	*	*	*	*	*	*	*	*
4F\	.	.	.	12A/L	.	.	.	.	.	.	.	4F\	.	.	.	.	.
.	.	.	.	12c/	.	.	.	.	.	.	.	.	.	.	.	.	.
.	.	.	.	12f/J	.	.	.	.	.	.	.	.	.	.	.	.	.
*	*	*	*	*tremolo	*	*	*	*	*	*	*	*	*	*	*	*	*
!	!	!	!	!LO:N:TREM:vis=4.	!	!	!	!	!	!	!	!	!	!	!	!	!
4r	.	4c\	.	12f/L	.	4ee-\	.	.	.	.	.	4e-\	.	.	.	.	.
.	.	.	.	12f/	.	.	.	.	.	.	.	.	.	.	.	.	.
.	.	.	.	12f/J	.	.	.	.	.	.	.	.	.	.	.	.	.
*	*	*	*	*Xtremolo	*	*	*	*	*	*	*	*	*	*	*	*	*
=4	=4	=4	=4	=4	=4	=4	=4	=4	=4	=4	=4	=4	=4	=4	=4	=4	=4
.	.	.	.	.	.	8qqff/	.	.	.	.	.	8qqf/	.	.	.	.	.
4BB-/	.	(<1B-	.	12B-/L	.	8ee-\L	.	.	.	.	.	8e-\L	.	.	.	.	.
.	.	.	.	12d/	.	.	.	.	.	.	.	.	.	.	.	.	.
.	.	.	.	.	.	8dd\J	.	.	.	.	.	8d\J	.	.	.	.	.
.	.	.	.	12f/J	.	.	.	.	.	.	.	.	.	.	.	.	.
*	*	*	*	*tremolo	*	*	*	*	*	*	*	*	*	*	*	*	*
!	!	!	!	!LO:N:TREM:vis=4.	!	!	!	!	!	!	!	!	!	!	!	!	!
4r	.	.	.	12f/L	.	4dd\	.	.	.	.	.	4d\	.	.	.	.	.
.	.	.	.	12f/	.	.	.	.	.	.	.	.	.	.	.	.	.
.	.	.	.	12f/J	.	.	.	.	.	.	.	.	.	.	.	.	.
*	*	*	*	*Xtremolo	*	*	*	*	*	*	*	*	*	*	*	*	*
4B-\	.	.	.	12B-/L	.	2r	.	.	.	.	.	2r	.	.	.	.	.
.	.	.	.	12d/	.	.	.	.	.	.	.	.	.	.	.	.	.
.	.	.	.	12f/J	.	.	.	.	.	.	.	.	.	.	.	.	.
!	!	!	!	!LO:LB:g=original	!	!	!	!	!	!	!	!	!	!	!	!	!
4r	.	.	.	12f/L	.	.	.	.	.	.	.	.	.	.	.	.	.
.	.	.	.	12f/	.	.	.	.	.	.	.	.	.	.	.	.	.
.	.	.	.	12f/J	.	.	.	.	.	.	.	.	.	.	.	.	.
=5	=5	=5	=5	=5	=5	=5	=5	=5	=5	=5	=5	=5	=5	=5	=5	=5	=5
4F\	.	(2e-\)	.	12f/L	.	4.cc\	.	00r	.	00r	.	4.c\	.	00r	.	00r	.
.	.	.	.	12f/	.	.	.	.	.	.	.	.	.	.	.	.	.
.	.	.	.	12f/J	.	.	.	.	.	.	.	.	.	.	.	.	.
*	*	*	*	*tremolo	*	*	*	*	*	*	*	*	*	*	*	*	*
!	!	!	!	!LO:N:TREM:vis=4.	!	!	!	!	!	!	!	!	!	!	!	!	!
4r	.	.	.	12f/L	.	.	.	.	.	.	.	.	.	.	.	.	.
.	.	.	.	12f/	.	.	.	.	.	.	.	.	.	.	.	.	.
.	.	.	.	.	.	8a/	.	.	.	.	.	8A\	.	.	.	.	.
.	.	.	.	12f/J	.	.	.	.	.	.	.	.	.	.	.	.	.
!	!	!	!	!LO:N:TREM:vis=2.	!	!	!	!	!	!	!	!	!	!	!	!	!
4BB-/	.	2d\)	.	12f/L	.	8b-\L	.	.	.	.	.	(8B-\L	.	.	.	.	.
.	.	.	.	12f/	.	.	.	.	.	.	.	.	.	.	.	.	.
.	.	.	.	.	.	8f\	.	.	.	.	.	8F\)	.	.	.	.	.
.	.	.	.	12f/	.	.	.	.	.	.	.	.	.	.	.	.	.
4r	.	.	.	12f/	.	8b-\	.	.	.	.	.	(8B-\	.	.	.	.	.
.	.	.	.	12f/	.	.	.	.	.	.	.	.	.	.	.	.	.
.	.	.	.	.	.	8dd\J	.	.	.	.	.	8d\J)	.	.	.	.	.
.	.	.	.	12f/J	.	.	.	.	.	.	.	.	.	.	.	.	.
!LO:LB:g=original	!	!	!	!	!	!	!	!	!	!	!	!	!	!	!	!	!
=6	=6	=6	=6	=6	=6	=6	=6	=6	=6	=6	=6	=6	=6	=6	=6	=6	=6
.	.	.	.	.	.	(<16qqcc/LL	.	.	.	.	.	(<16qqc/LL	.	.	.	.	.
.	.	.	.	.	.	16qqdd/JJ	.	.	.	.	.	16qqd/JJ	.	.	.	.	.
!	!	!	!	!LO:N:TREM:vis=2.	!	!	!	!	!	!	!	!	!	!	!	!	!
4F\	.	(2a\	.	12f/L	.	4.ee-\)	.	.	.	.	.	4.e-\)	.	.	.	.	.
.	.	.	.	12f/	.	.	.	.	.	.	.	.	.	.	.	.	.
.	.	.	.	12f/	.	.	.	.	.	.	.	.	.	.	.	.	.
4r	.	.	.	12f/	.	.	.	.	.	.	.	.	.	.	.	.	.
.	.	.	.	12f/	.	.	.	.	.	.	.	.	.	.	.	.	.
.	.	.	.	.	.	8cc\	.	.	.	.	.	8c\	.	.	.	.	.
.	.	.	.	12f/J	.	.	.	.	.	.	.	.	.	.	.	.	.
!	!	!	!	!LO:N:TREM:vis=2.	!	!	!	!	!	!	!	!	!	!	!	!	!
4B-\	.	2b-\)	.	12f/L	.	8dd\L	.	.	.	.	.	8d\L	.	.	.	.	.
.	.	.	.	12f/	.	.	.	.	.	.	.	.	.	.	.	.	.
.	.	.	.	.	.	8b-\	.	.	.	.	.	8B-\	.	.	.	.	.
.	.	.	.	12f/	.	.	.	.	.	.	.	.	.	.	.	.	.
4r	.	.	.	12f/	.	(8dd\	.	.	.	.	.	8d\	.	.	.	.	.
.	.	.	.	12f/	.	.	.	.	.	.	.	.	.	.	.	.	.
.	.	.	.	.	.	8ee-\J)	.	.	.	.	.	8e-\J	.	.	.	.	.
.	.	.	.	12f/J	.	.	.	.	.	.	.	.	.	.	.	.	.
*	*	*	*	*Xtremolo	*	*	*	*	*	*	*	*	*	*	*	*	*
!	!	!	!	!	!	!LO:LB:g=original	!	!	!	!	!	!LO:LB:g=original	!	!	!	!	!
=7	=7	=7	=7	=7	=7	=7	=7	=7	=7	=7	=7	=7	=7	=7	=7	=7	=7
*	*	*	*	*	*	*Xtuplet	*	*	*	*	*	*	*	*	*	*	*
!	!	!LO:TX:a:t=2	!	!	!	!	!	!	!	!	!	!	!	!	!	!	!
4BB-/	.	0r	.	12dd\L	.	12ff\L	.	.	.	.	.	4f\	.	.	.	.	.
.	.	.	.	12dd\	.	12ff\	.	.	.	.	.	.	.	.	.	.	.
.	.	.	.	12dd\J	.	12ff\J	.	.	.	.	.	.	.	.	.	.	.
4r	.	.	.	12dd\L	.	12ff\L	.	.	.	.	.	4r	.	.	.	.	.
.	.	.	.	12ee-\	.	12gg\	.	.	.	.	.	.	.	.	.	.	.
.	.	.	.	12dd\J	.	12ff\J	.	.	.	.	.	.	.	.	.	.	.
2r	.	.	.	12dd\L	.	12bb-\L	.	.	.	.	.	2r	.	.	.	.	.
.	.	.	.	12ff\	.	12aa\	.	.	.	.	.	.	.	.	.	.	.
.	.	.	.	12ee-\J	.	12gg\J	.	.	.	.	.	.	.	.	.	.	.
.	.	.	.	12dd\L	.	12ff\L	.	.	.	.	.	.	.	.	.	.	.
.	.	.	.	12cc\	.	12ee-\	.	.	.	.	.	.	.	.	.	.	.
.	.	.	.	12b-\J	.	12dd\J	.	.	.	.	.	.	.	.	.	.	.
=8	=8	=8	=8	=8	=8	=8	=8	=8	=8	=8	=8	=8	=8	=8	=8	=8	=8
!	!	!	!	!	!	!	!	!	!	!	!	!LO:TX:a:t=13	!	!	!	!	!
4F\	.	.	.	12a/L	.	12cc\L	.	.	.	.	.	00r	.	.	.	.	.
.	.	.	.	12b-/	.	12dd\	.	.	.	.	.	.	.	.	.	.	.
.	.	.	.	12a/J	.	12cc\J	.	.	.	.	.	.	.	.	.	.	.
4r	.	.	.	12g/L	.	12b-\L	.	.	.	.	.	.	.	.	.	.	.
.	.	.	.	12a/	.	12cc\	.	.	.	.	.	.	.	.	.	.	.
.	.	.	.	12g/J	.	12b-\J	.	.	.	.	.	.	.	.	.	.	.
4FF/	.	.	.	12f/L	.	12a/L	.	.	.	.	.	.	.	.	.	.	.
.	.	.	.	12f/	.	12a/	.	.	.	.	.	.	.	.	.	.	.
.	.	.	.	12g/J	.	12b-/J	.	.	.	.	.	.	.	.	.	.	.
4r	.	.	.	12a/L	.	12cc\L	.	.	.	.	.	.	.	.	.	.	.
.	.	.	.	12b-/	.	12dd\	.	.	.	.	.	.	.	.	.	.	.
.	.	.	.	12cc/J	.	12ee-\J	.	.	.	.	.	.	.	.	.	.	.
!	!	!LO:LB:g=original	!	!	!	!	!	!	!	!	!	!	!	!	!	!	!
=9	=9	=9	=9	=9	=9	=9	=9	=9	=9	=9	=9	=9	=9	=9	=9	=9	=9
.	.	.	.	.	.	8qqdd/	.	.	.	.	.	.	.	.	.	.	.
*	*	*Xtuplet	*	*	*	*	*	*	*	*2\right	*	*	*	*	*	*2\right	*
!LO:TX:b:t=Colarco	!	!	!LO:DY:t=forte	!	!LO:DY:t=for	!	!LO:DY:t=forte	!	!LO:DY:t=for	!	!LO:DY:t=for	!	!	!	!LO:DY:t=for	!	!
4BB-/	.	12b-\L	f	12dd\L	f	2.ff\	f	1B-	f	[2b-\	f	.	.	1f	f	2.ff\	f
.	.	12cc\	.	12ee-\	.	.	.	.	.	.	.	.	.	.	.	.	.
.	.	12dd\J	.	12ff\J	.	.	.	.	.	.	.	.	.	.	.	.	.
*	*	*	*	*tremolo	*	*	*	*	*	*	*	*	*	*	*	*	*
!	!	!	!	!LO:N:TREM:vis=4.	!	!	!	!	!	!	!	!	!	!	!	!	!
4r	.	12dd\L	.	12ff\L	.	.	.	.	.	.	.	.	.	.	.	.	.
.	.	12dd\	.	12ff\	.	.	.	.	.	.	.	.	.	.	.	.	.
.	.	12dd\J	.	12ff\J	.	.	.	.	.	.	.	.	.	.	.	.	.
*	*	*	*	*Xtremolo	*	*	*	*	*	*	*	*	*	*	*	*	*
4B-\	.	12b-\L	.	12dd\L	.	.	.	.	.	2b-\]	.	.	.	.	.	.	.
.	.	12cc\	.	12ee-\	.	.	.	.	.	.	.	.	.	.	.	.	.
.	.	12dd\J	.	12ff\J	.	.	.	.	.	.	.	.	.	.	.	.	.
*	*	*	*	*tremolo	*	*	*	*	*	*	*	*	*	*	*	*	*
!	!LO:DY:t=for	!	!	!LO:N:TREM:vis=4.	!	!	!	!	!	!	!	!	!	!	!	!	!
4r	f	12dd\L	.	12ff\L	.	4b-/	.	.	.	.	.	.	.	.	.	4b-/	.
.	.	12dd\	.	12ff\	.	.	.	.	.	.	.	.	.	.	.	.	.
.	.	12ddJ	.	12ff\J	.	.	.	.	.	.	.	.	.	.	.	.	.
*	*	*	*	*Xtremolo	*	*	*	*	*	*	*	*	*	*	*	*	*
!	!	!	!	!LO:LB:g=original	!	!	!	!	!	!	!	!	!	!	!	!	!
=10	=10	=10	=10	=10	=10	=10	=10	=10	=10	=10	=10	=10	=10	=10	=10	=10	=10
.	.	.	.	.	.	8qqcc/	.	.	.	.	.	.	.	.	.	8qqcc/	.
4F\	.	12a\L	.	12cc\L	.	8b-/L	.	4f/	.	4ff\	.	.	.	2f/	.	8b-/L	.
.	.	12b-\	.	12dd\	.	.	.	.	.	.	.	.	.	.	.	.	.
.	.	.	.	.	.	8a/J	.	.	.	.	.	.	.	.	.	8a/J	.
.	.	12cc\J	.	12ee-\J	.	.	.	.	.	.	.	.	.	.	.	.	.
*	*	*	*	*tremolo	*	*	*	*	*	*	*	*	*	*	*	*	*
!	!	!	!	!LO:N:TREM:vis=4.	!	!	!	!	!	!	!	!	!	!	!	!	!
4r	.	12cc\L	.	12ee-\L	.	4a/	.	4r	.	4r	.	.	.	.	.	4a/	.
.	.	12cc\	.	12ee-\	.	.	.	.	.	.	.	.	.	.	.	.	.
.	.	12cc\J	.	12ee-\J	.	.	.	.	.	.	.	.	.	.	.	.	.
*	*	*	*	*Xtremolo	*	*	*	*	*	*	*	*	*	*	*	*	*
4FF/	.	12a\L	.	12cc\L	.	2r	.	2r	.	2r	.	.	.	2r	.	2r	.
.	.	12b-\	.	12dd\	.	.	.	.	.	.	.	.	.	.	.	.	.
.	.	12cc\J	.	12ee-\J	.	.	.	.	.	.	.	.	.	.	.	.	.
*	*	*tremolo	*	*tremolo	*	*	*	*	*	*	*	*	*	*	*	*	*
!	!	!LO:N:TREM:vis=4.	!	!LO:N:TREM:vis=4.	!	!	!	!	!	!	!	!	!	!	!	!	!
4r	.	12cc\L	.	12ee-\L	.	.	.	.	.	.	.	.	.	.	.	.	.
.	.	12cc\	.	12ee-\	.	.	.	.	.	.	.	.	.	.	.	.	.
.	.	12cc\J	.	12ee-\J	.	.	.	.	.	.	.	.	.	.	.	.	.
*	*	*Xtremolo	*	*Xtremolo	*	*	*	*	*	*	*	*	*	*	*	*	*
=11	=11	=11	=11	=11	=11	=11	=11	=11	=11	=11	=11	=11	=11	=11	=11	=11	=11
.	.	.	.	.	.	8qqcc/	.	.	.	.	.	.	.	.	.	8qqcc/	.
4FF/	.	12cc\L	.	12ee-\L	.	2.ccc\	.	(1f	.	(<1ff	.	.	.	(<1cc	.	2.ccc\	.
.	.	12b-\	.	12dd\	.	.	.	.	.	.	.	.	.	.	.	.	.
.	.	12a\J	.	12cc\J	.	.	.	.	.	.	.	.	.	.	.	.	.
*	*	*tremolo	*	*tremolo	*	*	*	*	*	*	*	*	*	*	*	*	*
!	!	!LO:N:TREM:vis=4.	!	!LO:N:TREM:vis=4.	!	!	!	!	!	!	!	!	!	!	!	!	!
4r	.	12a\L	.	12cc\L	.	.	.	.	.	.	.	.	.	.	.	.	.
.	.	12a\	.	12cc\	.	.	.	.	.	.	.	.	.	.	.	.	.
.	.	12a\J	.	12cc\J	.	.	.	.	.	.	.	.	.	.	.	.	.
*	*	*Xtremolo	*	*Xtremolo	*	*	*	*	*	*	*	*	*	*	*	*	*
4F\	.	12cc\L	.	12ee-\L	.	.	.	.	.	.	.	.	.	.	.	.	.
.	.	12b-\	.	12dd\	.	.	.	.	.	.	.	.	.	.	.	.	.
.	.	12a\J	.	12cc\J	.	.	.	.	.	.	.	.	.	.	.	.	.
*	*	*tremolo	*	*tremolo	*	*	*	*	*	*	*	*	*	*	*	*Xtuplet	*
!	!	!LO:N:TREM:vis=4.	!	!LO:N:TREM:vis=4.	!	!	!	!	!	!	!	!	!	!	!	!	!
4r	.	12a\L	.	12cc\L	.	12aa\L	.	.	.	.	.	.	.	.	.	12aa\L	.
.	.	12a\	.	12cc\	.	12ff\	.	.	.	.	.	.	.	.	.	12ff\	.
.	.	12a\J	.	12cc\J	.	12ee-\J	.	.	.	.	.	.	.	.	.	12ee-\J	.
*	*	*Xtremolo	*	*Xtremolo	*	*	*	*	*	*	*	*	*	*	*	*	*
!	!	!	!	!	!	!LO:LB:g=original	!	!	!	!	!	!	!	!	!	!	!
=12	=12	=12	=12	=12	=12	=12	=12	=12	=12	=12	=12	=12	=12	=12	=12	=12	=12
.	.	.	.	.	.	8qqff/	.	.	.	.	.	.	.	.	.	8qqff/	.
*	*	*	*	*	*	*	*	*	*	*	*	*	*	*2\right	*	*	*
4BB-/	.	12b-\L	.	12dd\L	.	8ee-\L	.	4B-/)	.	4b-\)	.	00r	.	2b-\)	.	8ee-\L	.
.	.	12cc\	.	12ee-\	.	.	.	.	.	.	.	.	.	.	.	.	.
.	.	.	.	.	.	8dd\J	.	.	.	.	.	.	.	.	.	8dd\J	.
.	.	12dd\J	.	12ff\J	.	.	.	.	.	.	.	.	.	.	.	.	.
*	*	*tremolo	*	*tremolo	*	*	*	*	*	*	*	*	*	*	*	*	*
!	!	!LO:N:TREM:vis=4.	!	!LO:N:TREM:vis=4.	!	!	!	!	!	!	!	!	!	!	!	!	!
4r	.	12dd\L	.	12ff\L	.	4dd\	.	8.B-/L	.	8.b-\L	.	.	.	.	.	4dd\	.
.	.	12dd\	.	12ff\	.	.	.	.	.	.	.	.	.	.	.	.	.
.	.	12dd\J	.	12ff\J	.	.	.	.	.	.	.	.	.	.	.	.	.
.	.	.	.	.	.	.	.	16B-/Jk	.	16b-\Jk	.	.	.	.	.	.	.
*	*	*Xtremolo	*	*Xtremolo	*	*	*	*	*	*	*	*	*	*	*	*	*
4B-\	.	12b-\L	.	12dd\L	.	8r	.	4B-/	.	4b-\	.	.	.	2r	.	2r	.
.	.	12cc\	.	12ee-\	.	.	.	.	.	.	.	.	.	.	.	.	.
.	.	.	.	.	.	8b-|\L	.	.	.	.	.	.	.	.	.	.	.
.	.	12dd\J	.	12ff\J	.	.	.	.	.	.	.	.	.	.	.	.	.
*	*	*tremolo	*	*tremolo	*	*	*	*	*	*	*	*	*	*	*	*	*
!	!	!LO:N:TREM:vis=4.	!	!LO:N:TREM:vis=4.	!	!	!	!	!	!	!	!	!	!	!	!	!
4r	.	12dd\L	.	12ff\L	.	(8b-\	.	4r	.	4r	.	.	.	.	.	.	.
.	.	12dd\	.	12ff\	.	.	.	.	.	.	.	.	.	.	.	.	.
.	.	.	.	.	.	8dd\J)	.	.	.	.	.	.	.	.	.	.	.
.	.	12dd\J	.	12ff\J	.	.	.	.	.	.	.	.	.	.	.	.	.
*	*	*Xtremolo	*	*Xtremolo	*	*	*	*	*	*	*	*	*	*	*	*	*
!LO:LB:g=original	!	!LO:LB:g=original	!	!	!	!	!	!	!	!	!	!	!	!	!	!	!
=13	=13	=13	=13	=13	=13	=13	=13	=13	=13	=13	=13	=13	=13	=13	=13	=13	=13
4BB-/	.	12b-\L	.	12dd\L	.	4.ff\	.	[1B-	.	[<1b-	.	.	.	[<1b-	.	1ff	.
.	.	12cc\	.	12ee-\	.	.	.	.	.	.	.	.	.	.	.	.	.
.	.	12dd\J	.	12ff\J	.	.	.	.	.	.	.	.	.	.	.	.	.
*	*	*tremolo	*	*	*	*	*	*	*	*	*	*	*	*	*	*	*
!	!	!LO:N:TREM:vis=4.	!	!	!	!	!	!	!	!	!	!	!	!	!	!	!
4r	.	12dd\L	.	12ff\L	.	.	.	.	.	.	.	.	.	.	.	.	.
.	.	12dd\	.	12gg\	.	.	.	.	.	.	.	.	.	.	.	.	.
.	.	.	.	.	.	(16gg\LL	.	.	.	.	.	.	.	.	.	.	.
.	.	12dd\J	.	12ff\J	.	.	.	.	.	.	.	.	.	.	.	.	.
.	.	.	.	.	.	16ff\JJ)	.	.	.	.	.	.	.	.	.	.	.
*	*	*Xtremolo	*	*	*	*	*	*	*	*	*	*	*	*	*	*	*
4B-\	.	12b-\L	.	12dd\L	.	4.bb-\	.	.	.	.	.	.	.	.	.	.	.
.	.	12cc\	.	12ee-\	.	.	.	.	.	.	.	.	.	.	.	.	.
.	.	12dd\J	.	12ff\J	.	.	.	.	.	.	.	.	.	.	.	.	.
*	*	*tremolo	*	*	*	*	*	*	*	*	*	*	*	*	*	*	*
!	!	!LO:N:TREM:vis=4.	!	!	!	!	!	!	!	!	!	!	!	!	!	!	!
4r	.	12dd\L	.	12ff\L	.	.	.	.	.	.	.	.	.	.	.	.	.
.	.	12dd\	.	12ff\	.	.	.	.	.	.	.	.	.	.	.	.	.
.	.	.	.	.	.	8ff\	.	.	.	.	.	.	.	.	.	.	.
.	.	12dd\J	.	12ff\J	.	.	.	.	.	.	.	.	.	.	.	.	.
!	!	!	!	!LO:LB:g=original	!	!	!	!	!	!	!	!	!	!	!	!	!
=14	=14	=14	=14	=14	=14	=14	=14	=14	=14	=14	=14	=14	=14	=14	=14	=14	=14
!	!	!LO:N:TREM:vis=4.	!	!	!	!	!	!	!	!	!	!	!	!	!	!	!
4E-X\	.	12b-\L	.	12ee-\L	.	4.gg\	.	1B-_	.	1b-_<	.	.	.	(<1b-]	.	4.gg\	.
.	.	12b-\	.	12ff\	.	.	.	.	.	.	.	.	.	.	.	.	.
.	.	12b-\J	.	12gg\J	.	.	.	.	.	.	.	.	.	.	.	.	.
!	!	!LO:N:TREM:vis=4.	!	!	!	!	!	!	!	!	!	!	!	!	!	!	!
4r	.	12b-\L	.	12gg\L	.	.	.	.	.	.	.	.	.	.	.	.	.
.	.	12b-\	.	12aa-X\	.	.	.	.	.	.	.	.	.	.	.	.	.
!	!	!	!	!	!	!LO:TX:a:t=P:problem=♭ above	!	!	!	!	!	!	!	!	!	!	!
.	.	.	.	.	.	16aa-\LL	.	.	.	.	.	.	.	.	.	16aa-X\LL	.
.	.	12b-\J	.	12gg\J	.	.	.	.	.	.	.	.	.	.	.	.	.
.	.	.	.	.	.	16gg\JJ	.	.	.	.	.	.	.	.	.	16gg\JJ	.
!	!	!LO:N:TREM:vis=4.	!	!	!	!	!	!	!	!	!	!	!	!	!	!	!
4EE-/	.	12b-\L	.	12ee-\L	.	4.bb-\	.	.	.	.	.	.	.	.	.	4.bb-\	.
.	.	12b-	.	12ff\	.	.	.	.	.	.	.	.	.	.	.	.	.
.	.	12b-\J	.	12gg\J	.	.	.	.	.	.	.	.	.	.	.	.	.
!	!	!LO:N:TREM:vis=4.	!	!	!	!	!	!	!	!	!	!	!	!	!	!	!
4r	.	12b-\L	.	12gg\L	.	.	.	.	.	.	.	.	.	.	.	.	.
.	.	12b-\	.	12gg\	.	.	.	.	.	.	.	.	.	.	.	.	.
.	.	.	.	.	.	8gg\	.	.	.	.	.	.	.	.	.	8gg\	.
.	.	12b-\J	.	12gg\J	.	.	.	.	.	.	.	.	.	.	.	.	.
*	*	*Xtremolo	*	*	*	*	*	*	*	*	*	*	*	*	*	*	*
!	!	!	!	!	!	!	!	!	!	!	!	!	!	!	!	!LO:LB:g=original	!
=15	=15	=15	=15	=15	=15	=15	=15	=15	=15	=15	=15	=15	=15	=15	=15	=15	=15
*	*	*	*	*	*	*	*	*	*	*	*	*	*	*Xtuplet	*	*	*
4F\	.	4b-\	.	12dd\L	.	12ff\L	.	4B-/]	.	4b-\]	.	.	.	12dd\L)	.	12ff\L	.
.	.	.	.	12dd\	.	12ff\	.	.	.	.	.	.	.	12dd\	.	12ff\	.
.	.	.	.	12dd\J	.	12ff\J	.	.	.	.	.	.	.	12dd\J	.	12ff\J	.
4r	.	4r	.	12dd\L	.	12ff\L	.	4r	.	4r	.	.	.	12dd\L	.	12ff\L	.
.	.	.	.	12ee-\	.	12gg\	.	.	.	.	.	.	.	12ee-\	.	12gg\	.
.	.	.	.	12dd\J	.	12ff\J	.	.	.	.	.	.	.	12dd\J	.	12ff\J	.
.	.	.	.	8qqee-/	.	8qqgg/	.	.	.	.	.	.	.	8qqee-/	.	8qqgg/	.
4FF/	.	4f\	.	12dd\L	.	12ff\L	.	4r	.	4r	.	.	.	12dd\L	.	12ff\L	.
.	.	.	.	12cc\	.	12ee-\	.	.	.	.	.	.	.	12cc\	.	12ee-\	.
.	.	.	.	12b-\J	.	12dd\J	.	.	.	.	.	.	.	12b-\J	.	12dd\J	.
.	.	.	.	8qqdd/	.	8qqff/	.	.	.	.	.	.	.	8qqdd/	.	8qqff/	.
4r	.	4r	.	12cc\L	.	12ee-\L	.	4f/	.	4ff\	.	.	.	12cc\L	.	12ee-\L	.
.	.	.	.	12b-\	.	12dd\	.	.	.	.	.	.	.	12b-\	.	12dd\	.
.	.	.	.	12an\J	.	12cc\J	.	.	.	.	.	.	.	12a\J	.	12cc\J	.
=16	=16	=16	=16	=16	=16	=16	=16	=16	=16	=16	=16	=16	=16	=16	=16	=16	=16
4BB-/	.	4b-\	.	12d/L	.	12b-\L	.	4B-/	.	4b-\	.	00r	.	8.b-/L	.	8.b-\L	.
.	.	.	.	12e-/	.	12cc\	.	.	.	.	.	.	.	.	.	.	.
.	.	.	.	12f/J	.	12dd\J	.	.	.	.	.	.	.	.	.	.	.
.	.	.	.	.	.	.	.	.	.	.	.	.	.	16f/Jk	.	16dd\Jk	.
4FF/	.	4f\	.	12e-/L	.	12cc\L	.	4f/	.	4cc\	.	.	.	8.e-/L	.	8.cc/L	.
.	.	.	.	12d/	.	12b-\	.	.	.	.	.	.	.	.	.	.	.
.	.	.	.	12c/J	.	12a\J	.	.	.	.	.	.	.	.	.	.	.
.	.	.	.	.	.	.	.	.	.	.	.	.	.	16c/Jk	.	16a/Jk	.
4BB-/	.	4B-/	.	8d/L	.	8b-|\L	.	4B-/	.	4b-\	.	.	.	4d/	.	4b-\	.
.	.	.	.	8d/	.	(8b-\	.	.	.	.	.	.	.	.	.	.	.
4r	.	4r	.	8a/	.	8cc\	.	4r	.	4r	.	.	.	4r	.	4r	.
.	.	.	.	8b-/J	.	8dd\J)	.	.	.	.	.	.	.	.	.	.	.
!	!	!	!	!	!	!LO:LB:g=original	!	!LO:LB:g=original	!	!LO:LB:g=original	!	!	!	!	!	!	!
=17	=17	=17	=17	=17	=17	=17	=17	=17	=17	=17	=17	=17	=17	=17	=17	=17	=17
!	!	!	!	!	!	!	!	!LO:TX:b:t=Pausin	!	!LO:TX:b:t=Paus	!	!	!	!	!	!	!
!LO:TX:b:t=pizzicato	!	!	!LO:DY:t=p&colon;	!	!LO:DY:t=p&colon;	!	!	!LO:TX:a:t=32	!	!LO:TX:a:t=32	!	!	!	!	!LO:DY:t=pp&colon;	!	!
4F\	.	[<1f	p	12cc\L	p	12ee-'\L	pp	1r	.	1r	.	.	.	(2cc\	pp	(2ee-\	pp
.	.	.	.	12cc\	.	12ee-'\	.	.	.	.	.	.	.	.	.	.	.
.	.	.	.	12cc\J	.	12ee-'\J	.	.	.	.	.	.	.	.	.	.	.
*	*	*	*	*tremolo	*	*	*	*	*	*	*	*	*	*	*	*	*
!	!	!	!	!LO:N:TREM:vis=4.	!	!	!	!	!	!	!	!	!	!	!	!	!
4r	.	.	.	12cc\L	.	12ee-'\L	.	.	.	.	.	.	.	.	.	.	.
.	.	.	.	12cc\	.	12ee-'\	.	.	.	.	.	.	.	.	.	.	.
.	.	.	.	12cc\J	.	12ee-'\J	.	.	.	.	.	.	.	.	.	.	.
.	.	.	.	.	.	8qqff/	.	.	.	.	.	.	.	.	.	.	.
*	*	*	*	*Xtremolo	*	*	*	*	*	*	*	*	*	*	*	*	*
4FF/	.	.	.	12cc\L	.	12ee-\L	.	.	.	.	.	.	.	2a/)	.	2cc\)	.
.	.	.	.	12b-\	.	12dd\	.	.	.	.	.	.	.	.	.	.	.
.	.	.	.	12a\J	.	12cc\J	.	.	.	.	.	.	.	.	.	.	.
*	*	*	*	*tremolo	*	*	*	*	*	*	*	*	*	*	*	*	*
!	!	!	!	!LO:N:TREM:vis=4.	!	!	!	!	!	!	!	!	!	!	!	!	!
4r	.	.	.	12a/L	.	12cc'\L	.	.	.	.	.	.	.	.	.	.	.
.	.	.	.	12a/	.	12cc'\	.	.	.	.	.	.	.	.	.	.	.
.	.	.	.	12a/J	.	12cc'\J	.	.	.	.	.	.	.	.	.	.	.
*	*	*	*	*Xtremolo	*	*	*	*	*	*	*	*	*	*	*	*	*
!	!	!	!	!LO:LB:g=original	!	!	!	!	!	!	!	!	!	!LO:LB:g=original	!	!	!
=18	=18	=18	=18	=18	=18	=18	=18	=18	=18	=18	=18	=18	=18	=18	=18	=18	=18
4BB-/	.	4f\]	.	12b-\L	.	12dd\L	.	1r	.	1r	.	.	.	12b-\L	.	12dd\L	.
.	.	.	.	12cc\	.	12ee-\	.	.	.	.	.	.	.	12cc\	.	12ee-\	.
.	.	.	.	12dd\J	.	12ff\J	.	.	.	.	.	.	.	12dd\J	.	12ff\J	.
4r	.	4r	.	12dd\L	.	12ff\L	.	.	.	.	.	.	.	8dd\L	.	8ff\L	.
.	.	.	.	12dd\	.	12ff\	.	.	.	.	.	.	.	.	.	.	.
.	.	.	.	.	.	.	.	.	.	.	.	.	.	8dd\J	.	8ff\J	.
.	.	.	.	12dd\J	.	12ff\J	.	.	.	.	.	.	.	.	.	.	.
.	.	.	.	8qqee-/	.	8qqgg/	.	.	.	.	.	.	.	.	.	.	.
4B-\	.	2r	.	12dd\L	.	12ff\L	.	.	.	.	.	.	.	4dd\	.	4ff\	.
.	.	.	.	12cc\	.	12ee-\	.	.	.	.	.	.	.	.	.	.	.
.	.	.	.	12b-\J	.	12dd\J	.	.	.	.	.	.	.	.	.	.	.
.	.	.	.	8qqee-/	.	8qqgg/	.	.	.	.	.	.	.	.	.	.	.
4r	.	.	.	12dd\L	.	12ff\L	.	.	.	.	.	.	.	4r	.	4r	.
.	.	.	.	12cc\	.	12ee-\	.	.	.	.	.	.	.	.	.	.	.
.	.	.	.	12b-\J	.	12dd\J	.	.	.	.	.	.	.	.	.	.	.
!LO:LB:g=original	!	!LO:LB:g=original	!	!	!	!	!	!	!	!	!	!	!	!	!	!LO:LB:g=original	!
=19	=19	=19	=19	=19	=19	=19	=19	=19	=19	=19	=19	=19	=19	=19	=19	=19	=19
!	!	!	!	!	!	!	!LO:DY:t=p&colon;	!	!	!	!	!	!	!	!	!	!
4F\	.	[<1f	.	12e-X/L	pp	12cc/L	p	1r	.	1r	.	.	.	2e-X/	.	(2cc\	.
.	.	.	.	12e-/	.	12cc/	.	.	.	.	.	.	.	.	.	.	.
.	.	.	.	12e-/J	.	12cc/J	.	.	.	.	.	.	.	.	.	.	.
*	*	*	*	*tremolo	*	*	*	*	*	*	*	*	*	*	*	*	*
!	!	!	!	!LO:N:TREM:vis=4.	!	!	!	!	!	!	!	!	!	!	!	!	!
4r	.	.	.	12e-/L	.	12cc/L	.	.	.	.	.	.	.	.	.	.	.
.	.	.	.	12e-/	.	12cc/	.	.	.	.	.	.	.	.	.	.	.
.	.	.	.	12e-/J	.	12cc/J	.	.	.	.	.	.	.	.	.	.	.
*	*	*	*	*Xtremolo	*	*	*	*	*	*	*	*	*	*	*	*	*
!	!	!	!	!	!	!	!	!	!	!	!	!	!	!	!LO:DY:rj	!	!LO:DY:rj
4FF/	.	.	.	12e-/L	.	12cc/L	.	.	.	.	.	.	.	2c/	p	2an/	pp
.	.	.	.	12d/	.	12b-/	.	.	.	.	.	.	.	.	.	.	.
!	!	!	!	!	!	!LO:TX:b:t=P:problem=♮ below	!	!	!	!	!	!	!	!	!	!	!
.	.	.	.	12c/J	.	12an/J	.	.	.	.	.	.	.	.	.	.	.
4r	.	.	.	12e-/L	.	12cc/L	.	.	.	.	.	.	.	.	.	.	.
.	.	.	.	12d/	.	12b-/	.	.	.	.	.	.	.	.	.	.	.
.	.	.	.	12c/J	.	12a/J	.	.	.	.	.	.	.	.	.	.	.
=20	=20	=20	=20	=20	=20	=20	=20	=20	=20	=20	=20	=20	=20	=20	=20	=20	=20
4r	.	2f\]	.	(2c/	.	(2a/	pp	1r	.	1r	.	1r	.	2e-/	pp	2a/	.
4F\	.	.	.	.	.	.	.	.	.	.	.	.	.	.	.	.	.
4BB-/	.	4f\	.	4d/)	.	4b-/)	.	.	.	.	.	.	.	4d/	.	4b-/)	.
4r	.	4r	.	4r	.	4r	.	.	.	.	.	.	.	4r	.	4r	.
=21	=21	=21	=21	=21	=21	=21	=21	=21	=21	=21	=21	=21	=21	=21	=21	=21	=21
!	!	!LO:TX:a:t=30	!	!	!	!	!	!	!	!	!	!LO:TX:b:i:t=Solo	!	!LO:TX:a:t=29	!	!LO:TX:a:t=29	!
4BB-/	.	00r	.	12b-\L	p	12dd\L	.	1r	.	1r	.	[1f	.	00r	.	00r	.
.	.	.	.	12cc\	.	12ee-\	.	.	.	.	.	.	.	.	.	.	.
.	.	.	.	12dd\J	.	12ff\J	.	.	.	.	.	.	.	.	.	.	.
4r	.	.	.	12dd\L	.	12ff\L	.	.	.	.	.	.	.	.	.	.	.
.	.	.	.	12dd\	.	12ff\	.	.	.	.	.	.	.	.	.	.	.
.	.	.	.	12dd\J	.	12ff\J	.	.	.	.	.	.	.	.	.	.	.
!	!	!	!	!	!	!LO:LB:g=original	!	!	!	!	!	!	!	!	!	!	!
.	.	.	.	8qqee-/	.	8qqgg/	.	.	.	.	.	.	.	.	.	.	.
2r	.	.	.	12dd\L	.	12ff\L	.	.	.	.	.	.	.	.	.	.	.
.	.	.	.	12cc\	.	12ee-\	.	.	.	.	.	.	.	.	.	.	.
.	.	.	.	12b-\J	.	12dd\J	.	.	.	.	.	.	.	.	.	.	.
.	.	.	.	8qqee-/	.	8qqgg/	.	.	.	.	.	.	.	.	.	.	.
.	.	.	.	12dd\L	.	12ff\L	.	.	.	.	.	.	.	.	.	.	.
.	.	.	.	12cc\	.	12ee-\	.	.	.	.	.	.	.	.	.	.	.
.	.	.	.	12b-\J	.	12dd\J	.	.	.	.	.	.	.	.	.	.	.
=22	=22	=22	=22	=22	=22	=22	=22	=22	=22	=22	=22	=22	=22	=22	=22	=22	=22
!LO:TX:b:t=Colarco	!	!	!	!	!	!	!	!	!	!	!	!	!	!	!	!	!
4F\	.	.	.	12a/L	.	12cc\L	.	1r	.	1r	.	(<1f]	.	.	.	.	.
.	.	.	.	12b-/	.	12dd\	.	.	.	.	.	.	.	.	.	.	.
.	.	.	.	12cc/J	.	12ee-\J	.	.	.	.	.	.	.	.	.	.	.
*	*	*	*	*tremolo	*	*	*	*	*	*	*	*	*	*	*	*	*
!	!	!	!	!LO:N:TREM:vis=4.	!	!	!	!	!	!	!	!	!	!	!	!	!
4r	.	.	.	12cc/L	.	12ee-\L	.	.	.	.	.	.	.	.	.	.	.
.	.	.	.	12cc/	.	12ee-\	.	.	.	.	.	.	.	.	.	.	.
.	.	.	.	12cc/J	.	12ee-\J	.	.	.	.	.	.	.	.	.	.	.
.	.	.	.	.	.	8qqff/	.	.	.	.	.	.	.	.	.	.	.
*	*	*	*	*Xtremolo	*	*	*	*	*	*	*	*	*	*	*	*	*
!	!	!	!	!LO:LB:g=original	!	!	!	!	!	!	!	!	!	!	!	!	!
2r	.	.	.	12cc\L	.	12ee-\L	.	.	.	.	.	.	.	.	.	.	.
.	.	.	.	12b-\	.	12dd\	.	.	.	.	.	.	.	.	.	.	.
.	.	.	.	12a\J	.	12cc\J	.	.	.	.	.	.	.	.	.	.	.
.	.	.	.	.	.	8qqff/	.	.	.	.	.	.	.	.	.	.	.
.	.	.	.	12cc\L	.	12ee-\L	.	.	.	.	.	.	.	.	.	.	.
.	.	.	.	12b-\	.	12dd\	.	.	.	.	.	.	.	.	.	.	.
.	.	.	.	12a\J	.	12cc\J	.	.	.	.	.	.	.	.	.	.	.
=23	=23	=23	=23	=23	=23	=23	=23	=23	=23	=23	=23	=23	=23	=23	=23	=23	=23
.	.	.	.	.	.	.	.	.	.	.	.	8qqe-/	.	.	.	.	.
4r	.	.	.	4r	.	4r	.	1r	.	1r	.	8d\L)	.	.	.	.	.
.	.	.	.	.	.	.	.	.	.	.	.	16c\L	.	.	.	.	.
.	.	.	.	.	.	.	.	.	.	.	.	16B-\JJ	.	.	.	.	.
!	!LO:DY:t=pia	!	!	!	!	!	!	!	!	!	!	!	!	!	!	!	!
4BB-/	p	.	.	12b-\L	.	12dd\L	.	.	.	.	.	4B-\	.	.	.	.	.
.	.	.	.	12cc\	.	12ee-\	.	.	.	.	.	.	.	.	.	.	.
.	.	.	.	12dd\J	.	12ff\J	.	.	.	.	.	.	.	.	.	.	.
4BB-/	.	.	.	4dd\	.	4ff\	.	.	.	.	.	8r	.	.	.	.	.
.	.	.	.	.	.	.	.	.	.	.	.	8B-\L	.	.	.	.	.
4r	.	.	.	4r	.	4r	.	.	.	.	.	8c\	.	.	.	.	.
.	.	.	.	.	.	.	.	.	.	.	.	8d\J	.	.	.	.	.
=24	=24	=24	=24	=24	=24	=24	=24	=24	=24	=24	=24	=24	=24	=24	=24	=24	=24
.	.	.	.	.	.	.	.	.	.	.	.	8qqe-/	.	.	.	.	.
4r	.	.	.	4r	.	4r	.	1r	.	1r	.	8d\L	.	.	.	.	.
.	.	.	.	.	.	.	.	.	.	.	.	16c\L	.	.	.	.	.
.	.	.	.	.	.	.	.	.	.	.	.	16d\JJ	.	.	.	.	.
4F\	.	.	.	12a/L	.	12cc\L	.	.	.	.	.	4c\	.	.	.	.	.
.	.	.	.	12g/	.	12b-\	.	.	.	.	.	.	.	.	.	.	.
.	.	.	.	12f/J	.	12a\J	.	.	.	.	.	.	.	.	.	.	.
!	!	!	!	!	!	!	!	!	!	!	!	!LO:TX:t=P:problem=mixed beam	!	!	!	!	!
4FF/	.	.	.	4f/	.	4a/	.	.	.	.	.	8FF/L	.	.	.	.	.
.	.	.	.	.	.	.	.	.	.	.	.	8c\	.	.	.	.	.
4r	.	.	.	4r	.	4r	.	.	.	.	.	8d\	.	.	.	.	.
.	.	.	.	.	.	.	.	.	.	.	.	8e-\J	.	.	.	.	.
=25	=25	=25	=25	=25	=25	=25	=25	=25	=25	=25	=25	=25	=25	=25	=25	=25	=25
.	.	.	.	.	.	.	.	.	.	.	.	8qqf/	.	.	.	.	.
4r	.	00r	.	4r	.	4r	.	1r	.	1r	.	8e-\L	.	00r	.	00r	.
.	.	.	.	.	.	.	.	.	.	.	.	8d\J	.	.	.	.	.
4BB-/	.	.	.	12dd\L	.	12ff\L	.	.	.	.	.	4d\	.	.	.	.	.
.	.	.	.	12cc\	.	12ee-\	.	.	.	.	.	.	.	.	.	.	.
.	.	.	.	12b-\J	.	12dd\J	.	.	.	.	.	.	.	.	.	.	.
!	!	!	!	!	!	!	!	!	!	!	!	!LO:LB:g=original	!	!	!	!	!
4D/	.	.	.	4b-\	.	4dd\	.	.	.	.	.	4.f\	.	.	.	.	.
4BB-/	.	.	.	4r	.	4r	.	.	.	.	.	.	.	.	.	.	.
.	.	.	.	.	.	.	.	.	.	.	.	[8B-\	.	.	.	.	.
!LO:LB:g=original	!	!	!	!	!	!LO:LB:g=original	!	!	!	!	!	!	!	!	!	!	!
=26	=26	=26	=26	=26	=26	=26	=26	=26	=26	=26	=26	=26	=26	=26	=26	=26	=26
!	!	!	!	!LO:TX:a:t=1	!	!LO:TX:a:t=1	!	!	!	!	!	!	!	!	!	!	!
2.C/	.	.	.	1r	.	1r	.	1r	.	1r	.	4B-\]	.	.	.	.	.
.	.	.	.	.	.	.	.	.	.	.	.	16A\LL	.	.	.	.	.
.	.	.	.	.	.	.	.	.	.	.	.	16G\	.	.	.	.	.
.	.	.	.	.	.	.	.	.	.	.	.	16F\	.	.	.	.	.
.	.	.	.	.	.	.	.	.	.	.	.	16G\JJ	.	.	.	.	.
.	.	.	.	.	.	.	.	.	.	.	.	16A\LL	.	.	.	.	.
.	.	.	.	.	.	.	.	.	.	.	.	16B-\	.	.	.	.	.
.	.	.	.	.	.	.	.	.	.	.	.	16A\	.	.	.	.	.
.	.	.	.	.	.	.	.	.	.	.	.	16B-\JJ	.	.	.	.	.
4F\	.	.	.	.	.	.	.	.	.	.	.	16c\LL	.	.	.	.	.
.	.	.	.	.	.	.	.	.	.	.	.	16c\	.	.	.	.	.
.	.	.	.	.	.	.	.	.	.	.	.	16d\	.	.	.	.	.
.	.	.	.	.	.	.	.	.	.	.	.	16e-\JJ	.	.	.	.	.
=27	=27	=27	=27	=27	=27	=27	=27	=27	=27	=27	=27	=27	=27	=27	=27	=27	=27
.	.	.	.	.	.	.	.	.	.	.	.	8qqe-/	.	.	.	.	.
4B-\	.	.	.	4r	.	4r	.	1r	.	1r	.	8d\L	.	.	.	.	.
.	.	.	.	.	.	.	.	.	.	.	.	16c\L	.	.	.	.	.
.	.	.	.	.	.	.	.	.	.	.	.	16B-\JJ	.	.	.	.	.
8.F\L	.	.	.	12b-\L	.	12dd\L	.	.	.	.	.	4B-\	.	.	.	.	.
.	.	.	.	12cc\	.	12ee-\	.	.	.	.	.	.	.	.	.	.	.
.	.	.	.	12dd\J	.	12ff\J	.	.	.	.	.	.	.	.	.	.	.
16D\Jk	.	.	.	.	.	.	.	.	.	.	.	.	.	.	.	.	.
4BB-/	.	.	.	4dd\	.	4ff\	.	.	.	.	.	4r	.	.	.	.	.
4r	.	.	.	4r	.	4r	.	.	.	.	.	4F\	.	.	.	.	.
=28	=28	=28	=28	=28	=28	=28	=28	=28	=28	=28	=28	=28	=28	=28	=28	=28	=28
*	*	*	*	*	*	*	*	*	*	*	*	*Xtuplet	*	*	*	*	*
!	!	!	!	!LO:TX:a:t=1	!	!LO:TX:a:t=1	!	!	!	!	!	!	!	!	!	!	!
4BB-/	.	.	.	1r	.	1r	.	1r	.	1r	.	12BB-/L	.	.	.	.	.
.	.	.	.	.	.	.	.	.	.	.	.	12FF/	.	.	.	.	.
.	.	.	.	.	.	.	.	.	.	.	.	12BB-/J	.	.	.	.	.
4r	.	.	.	.	.	.	.	.	.	.	.	12D\L	.	.	.	.	.
.	.	.	.	.	.	.	.	.	.	.	.	12BB-\	.	.	.	.	.
.	.	.	.	.	.	.	.	.	.	.	.	12D\J	.	.	.	.	.
2r	.	.	.	.	.	.	.	.	.	.	.	12F\L	.	.	.	.	.
.	.	.	.	.	.	.	.	.	.	.	.	12D\	.	.	.	.	.
.	.	.	.	.	.	.	.	.	.	.	.	12F\J	.	.	.	.	.
.	.	.	.	.	.	.	.	.	.	.	.	12B-\L	.	.	.	.	.
.	.	.	.	.	.	.	.	.	.	.	.	12F\	.	.	.	.	.
.	.	.	.	.	.	.	.	.	.	.	.	12B-\J	.	.	.	.	.
!	!	!	!	!LO:LB:g=original	!	!	!	!	!	!	!	!	!	!	!	!	!
=29	=29	=29	=29	=29	=29	=29	=29	=29	=29	=29	=29	=29	=29	=29	=29	=29	=29
4BB-/	.	00r	.	8r	.	8r	.	1r	.	1r	.	4.d\	.	00r	.	00r	.
.	.	.	.	8f/L	.	8dd\L	.	.	.	.	.	.	.	.	.	.	.
4r	.	.	.	8f/	.	8dd\	.	.	.	.	.	.	.	.	.	.	.
.	.	.	.	8f/J	.	8dd\J	.	.	.	.	.	8B-\	.	.	.	.	.
4BB-/	.	.	.	8r	.	8r	.	.	.	.	.	4.f\	.	.	.	.	.
.	.	.	.	8f/L	.	8dd\L	.	.	.	.	.	.	.	.	.	.	.
4r	.	.	.	8f/	.	8dd\	.	.	.	.	.	.	.	.	.	.	.
!	!	!	!	!	!	!	!	!	!	!	!	!LO:TX:a:t=d	!	!	!	!	!
.	.	.	.	8f/J	.	8b-\J	.	.	.	.	.	8d\	.	.	.	.	.
!	!	!	!	!	!	!	!	!	!	!	!	!LO:LB:g=original	!	!	!	!	!
=30	=30	=30	=30	=30	=30	=30	=30	=30	=30	=30	=30	=30	=30	=30	=30	=30	=30
.	.	.	.	.	.	.	.	.	.	.	.	8qqe-/	.	.	.	.	.
4F\	.	.	.	8r	.	4b-T\	.	1r	.	1r	.	4dt\	.	.	.	.	.
.	.	.	.	8f/L	.	.	.	.	.	.	.	.	.	.	.	.	.
4r	.	.	.	8f/	.	8a'/L	.	.	.	.	.	4c\	.	.	.	.	.
.	.	.	.	8f/J	.	8a'/J	.	.	.	.	.	.	.	.	.	.	.
4FF/	.	.	.	4f/	.	4a'/	.	.	.	.	.	4r	.	.	.	.	.
4r	.	.	.	4r	.	4r	.	.	.	.	.	4C/	.	.	.	.	.
=31	=31	=31	=31	=31	=31	=31	=31	=31	=31	=31	=31	=31	=31	=31	=31	=31	=31
!	!	!	!	!LO:TX:a:t=1	!	!LO:TX:a:t=1	!	!	!	!	!	!	!	!	!	!	!
4F\	.	.	.	1r	.	1r	.	1r	.	1r	.	12F\L	.	.	.	.	.
.	.	.	.	.	.	.	.	.	.	.	.	12C\	.	.	.	.	.
.	.	.	.	.	.	.	.	.	.	.	.	12F\J	.	.	.	.	.
4r	.	.	.	.	.	.	.	.	.	.	.	12A\L	.	.	.	.	.
.	.	.	.	.	.	.	.	.	.	.	.	12F\	.	.	.	.	.
.	.	.	.	.	.	.	.	.	.	.	.	12A\J	.	.	.	.	.
2r	.	.	.	.	.	.	.	.	.	.	.	12c\L	.	.	.	.	.
.	.	.	.	.	.	.	.	.	.	.	.	12A\	.	.	.	.	.
.	.	.	.	.	.	.	.	.	.	.	.	12F\J	.	.	.	.	.
.	.	.	.	.	.	.	.	.	.	.	.	12C/L	.	.	.	.	.
.	.	.	.	.	.	.	.	.	.	.	.	12AA/	.	.	.	.	.
.	.	.	.	.	.	.	.	.	.	.	.	12C/J	.	.	.	.	.
=32	=32	=32	=32	=32	=32	=32	=32	=32	=32	=32	=32	=32	=32	=32	=32	=32	=32
4FF/	.	.	.	8r	.	8r	.	1r	.	1r	.	4FF/	.	.	.	.	.
.	.	.	.	8f/L	.	(8a'/L	.	.	.	.	.	.	.	.	.	.	.
4r	.	.	.	8f/	.	8a'/	.	.	.	.	.	4c\	.	.	.	.	.
.	.	.	.	8f/J	.	8a'/J)	.	.	.	.	.	.	.	.	.	.	.
4F\	.	.	.	8r	.	4.a/	.	.	.	.	.	4.c\	.	.	.	.	.
.	.	.	.	8f/L	.	.	.	.	.	.	.	.	.	.	.	.	.
4r	.	.	.	8f/	.	.	.	.	.	.	.	.	.	.	.	.	.
.	.	.	.	8f/J	.	8cc/	.	.	.	.	.	8e-\	.	.	.	.	.
!LO:LB:g=original	!	!	!	!	!	!LO:LB:g=original	!	!	!	!	!	!	!	!	!	!	!
=33	=33	=33	=33	=33	=33	=33	=33	=33	=33	=33	=33	=33	=33	=33	=33	=33	=33
.	.	.	.	.	.	.	.	.	.	.	.	8qqf/	.	.	.	.	.
4BB-/	.	00r	.	8r	.	4ccT\	.	1r	.	1r	.	4e-T\	.	00r	.	00r	.
.	.	.	.	8f/L	.	.	.	.	.	.	.	.	.	.	.	.	.
4r	.	.	.	8f/	.	4b-\	.	.	.	.	.	4d\	.	.	.	.	.
.	.	.	.	8f/J	.	.	.	.	.	.	.	.	.	.	.	.	.
2r	.	.	.	4f/	.	(8dd\L	.	.	.	.	.	8f\L	.	.	.	.	.
.	.	.	.	.	.	8b-\	.	.	.	.	.	8d\	.	.	.	.	.
.	.	.	.	4r	.	8dd\	.	.	.	.	.	8f\	.	.	.	.	.
.	.	.	.	.	.	8b-\J)	.	.	.	.	.	8d\J	.	.	.	.	.
=34	=34	=34	=34	=34	=34	=34	=34	=34	=34	=34	=34	=34	=34	=34	=34	=34	=34
!	!	!	!	!LO:TX:a:t=1	!	!	!	!	!	!	!	!	!	!	!	!	!
4BB-/	.	.	.	1r	.	2dd\	.	1r	.	1r	.	(4.f\	.	.	.	.	.
4r	.	.	.	.	.	.	.	.	.	.	.	.	.	.	.	.	.
.	.	.	.	.	.	.	.	.	.	.	.	8f#X\)	.	.	.	.	.
4.E-X\	.	.	.	.	.	8ee-X\L	.	.	.	.	.	8g\L	.	.	.	.	.
.	.	.	.	.	.	8dd\	.	.	.	.	.	8fn\	.	.	.	.	.
.	.	.	.	.	.	8cc\	.	.	.	.	.	8e-\	.	.	.	.	.
8En\	.	.	.	.	.	8b-\J	.	.	.	.	.	8d\J	.	.	.	.	.
!	!	!	!	!	!	!	!	!	!	!	!	!LO:LB:g=original	!	!	!	!	!
=35	=35	=35	=35	=35	=35	=35	=35	=35	=35	=35	=35	=35	=35	=35	=35	=35	=35
4.F\	.	.	.	4.f/	.	4b-T\	.	1r	.	1r	.	4dt\	.	.	.	.	.
.	.	.	.	.	.	8.a/L	.	.	.	.	.	4c\	.	.	.	.	.
!	!	!	!	!	!LO:DY:t=for	!	!	!	!	!	!	!	!	!	!	!	!
8F\	.	.	.	8ff\	f	.	.	.	.	.	.	.	.	.	.	.	.
.	.	.	.	.	.	16ff/Jk	.	.	.	.	.	.	.	.	.	.	.
!	!	!	!	!	!	!	!LO:DY:t=for:rj	!	!	!	!	!	!	!	!	!	!
8C\L	.	.	.	8cc\L	.	8cc\L	f	.	.	.	.	2r	.	.	.	.	.
8F\	.	.	.	8ff\	.	8ff\	.	.	.	.	.	.	.	.	.	.	.
8AA\	.	.	.	8a\	.	8a\	.	.	.	.	.	.	.	.	.	.	.
8C\J	.	.	.	8cc\J	.	8cc\J	.	.	.	.	.	.	.	.	.	.	.
!	!	!	!	!LO:LB:g=original	!	!	!	!	!	!	!	!	!	!	!	!	!
=36	=36	=36	=36	=36	=36	=36	=36	=36	=36	=36	=36	=36	=36	=36	=36	=36	=36
!	!	!	!	!	!LO:DY:t=pia	!	!	!	!	!	!	!	!	!	!	!	!
4FF/	.	.	.	12f/L	p	12a/L	pp	1r	.	1r	.	[<1c	.	.	.	.	.
.	.	.	.	12g/	.	12b-/	.	.	.	.	.	.	.	.	.	.	.
.	.	.	.	12a/J	.	12cc/J	.	.	.	.	.	.	.	.	.	.	.
4r	.	.	.	12a/L	.	12cc/L	.	.	.	.	.	.	.	.	.	.	.
.	.	.	.	12a/	.	12cc/	.	.	.	.	.	.	.	.	.	.	.
.	.	.	.	12a/J	.	12cc/J	.	.	.	.	.	.	.	.	.	.	.
2r	.	.	.	12a/L	.	12cc/L	.	.	.	.	.	.	.	.	.	.	.
.	.	.	.	12g/	.	12b-/	.	.	.	.	.	.	.	.	.	.	.
.	.	.	.	12f/J	.	12a/J	.	.	.	.	.	.	.	.	.	.	.
.	.	.	.	12a/L	.	12cc/L	.	.	.	.	.	.	.	.	.	.	.
.	.	.	.	12g/	.	12b-/	.	.	.	.	.	.	.	.	.	.	.
.	.	.	.	12f/J	.	12a/J	.	.	.	.	.	.	.	.	.	.	.
=37	=37	=37	=37	=37	=37	=37	=37	=37	=37	=37	=37	=37	=37	=37	=37	=37	=37
4C/	.	00r	.	12e-/L	.	12g/L	.	1r	.	1r	.	(<1cT]	.	00r	.	00r	.
.	.	.	.	12f/	.	12a/	.	.	.	.	.	.	.	.	.	.	.
.	.	.	.	12g/J	.	12b-/J	.	.	.	.	.	.	.	.	.	.	.
*	*	*	*	*tremolo	*	*	*	*	*	*	*	*	*	*	*	*	*
!	!	!	!	!LO:N:TREM:vis=4.	!	!	!	!	!	!	!	!	!	!	!	!	!
4r	.	.	.	12g/L	.	12b-/L	.	.	.	.	.	.	.	.	.	.	.
.	.	.	.	12g/	.	12b-/	.	.	.	.	.	.	.	.	.	.	.
.	.	.	.	12g/J	.	12b-/J	.	.	.	.	.	.	.	.	.	.	.
*	*	*	*	*Xtremolo	*	*	*	*	*	*	*	*	*	*	*	*	*
2r	.	.	.	12g/L	.	12b-/L	.	.	.	.	.	.	.	.	.	.	.
.	.	.	.	12f/	.	12a/	.	.	.	.	.	.	.	.	.	.	.
.	.	.	.	12en/J	.	12g/J	.	.	.	.	.	.	.	.	.	.	.
.	.	.	.	12g/L	.	12b-/L	.	.	.	.	.	.	.	.	.	.	.
.	.	.	.	12f/	.	12a/	.	.	.	.	.	.	.	.	.	.	.
.	.	.	.	12en/J	.	12g/J	.	.	.	.	.	.	.	.	.	.	.
!	!	!	!	!	!	!LO:LB:g=original	!	!	!	!	!	!	!	!	!	!	!
=38	=38	=38	=38	=38	=38	=38	=38	=38	=38	=38	=38	=38	=38	=38	=38	=38	=38
.	.	.	.	.	.	8qqb-/	.	.	.	.	.	8qqd/)	.	.	.	.	.
4FF/	.	.	.	4f/	.	12a/L	.	1r	.	1r	.	8c\L	.	.	.	.	.
.	.	.	.	.	.	12g/	.	.	.	.	.	.	.	.	.	.	.
.	.	.	.	.	.	.	.	.	.	.	.	16B-\L	.	.	.	.	.
.	.	.	.	.	.	12f/J	.	.	.	.	.	.	.	.	.	.	.
.	.	.	.	.	.	.	.	.	.	.	.	16A\JJ	.	.	.	.	.
4r	.	.	.	4r	.	12f/L	.	.	.	.	.	12A\L	.	.	.	.	.
.	.	.	.	.	.	12f/	.	.	.	.	.	12A\	.	.	.	.	.
.	.	.	.	.	.	12f/J	.	.	.	.	.	12A\J	.	.	.	.	.
4BB-/	.	.	.	2r	.	12dd\L	.	.	.	.	.	12f\L	.	.	.	.	.
.	.	.	.	.	.	12cc\	.	.	.	.	.	12en\	.	.	.	.	.
.	.	.	.	.	.	12b-\J	.	.	.	.	.	12d\J	.	.	.	.	.
4r	.	.	.	.	.	12b-\L	.	.	.	.	.	12d\L	.	.	.	.	.
.	.	.	.	.	.	12b-\	.	.	.	.	.	12d\	.	.	.	.	.
.	.	.	.	.	.	12b-\J	.	.	.	.	.	12d\J	.	.	.	.	.
=39	=39	=39	=39	=39	=39	=39	=39	=39	=39	=39	=39	=39	=39	=39	=39	=39	=39
.	.	.	.	.	.	8qqb-/	.	.	.	.	.	.	.	.	.	.	.
4r	.	.	.	4r	.	4a/	.	1r	.	1r	.	4c\	.	.	.	.	.
(4D/	.	.	.	(4d/	.	2g/	.	.	.	.	.	2B-\	.	.	.	.	.
4BB-/	.	.	.	4B-/	.	.	.	.	.	.	.	.	.	.	.	.	.
4BBn/)	.	.	.	4Bn/)	.	4f/	.	.	.	.	.	4A\	.	.	.	.	.
!LO:LB:g=original	!	!	!	!	!	!	!	!	!	!	!	!	!	!	!	!	!
=40	=40	=40	=40	=40	=40	=40	=40	=40	=40	=40	=40	=40	=40	=40	=40	=40	=40
4C/	.	.	.	4c/	.	4en/	.	1r	.	1r	.	12G|\L	.	.	.	.	.
.	.	.	.	.	.	.	.	.	.	.	.	12C|\	.	.	.	.	.
.	.	.	.	.	.	.	.	.	.	.	.	12En|\J	.	.	.	.	.
4r	.	.	.	4r	.	4r	.	.	.	.	.	12G|\L	.	.	.	.	.
.	.	.	.	.	.	.	.	.	.	.	.	12E|\	.	.	.	.	.
.	.	.	.	.	.	.	.	.	.	.	.	12G|\J	.	.	.	.	.
2r	.	.	.	2r	.	2r	.	.	.	.	.	12c|\L	.	.	.	.	.
.	.	.	.	.	.	.	.	.	.	.	.	12G|\	.	.	.	.	.
.	.	.	.	.	.	.	.	.	.	.	.	12c|\J	.	.	.	.	.
!	!	!	!	!	!	!	!	!	!	!	!	!LO:LB:g=original	!	!	!	!	!
.	.	.	.	.	.	.	.	.	.	.	.	12en|\L	.	.	.	.	.
.	.	.	.	.	.	.	.	.	.	.	.	12c|\	.	.	.	.	.
.	.	.	.	.	.	.	.	.	.	.	.	12e|\J	.	.	.	.	.
!	!	!	!	!LO:LB:g=original	!	!	!	!	!	!	!	!	!	!	!	!	!
=41	=41	=41	=41	=41	=41	=41	=41	=41	=41	=41	=41	=41	=41	=41	=41	=41	=41
4C/	.	00r	.	12c/L	.	(4en/	.	1r	.	1r	.	4g\	.	00r	.	00r	.
.	.	.	.	12c/	.	.	.	.	.	.	.	.	.	.	.	.	.
.	.	.	.	12c/J	.	.	.	.	.	.	.	.	.	.	.	.	.
4r	.	.	.	12c/L	.	2g/	.	.	.	.	.	2B-\	.	.	.	.	.
.	.	.	.	12c/	.	.	.	.	.	.	.	.	.	.	.	.	.
.	.	.	.	12c/J	.	.	.	.	.	.	.	.	.	.	.	.	.
*	*	*	*	*tremolo	*	*	*	*	*	*	*	*	*	*	*	*	*
!	!	!	!	!LO:N:TREM:vis=4.	!	!	!	!	!	!	!	!	!	!	!	!	!
4c\	.	.	.	12c/L	.	.	.	.	.	.	.	.	.	.	.	.	.
.	.	.	.	12c/	.	.	.	.	.	.	.	.	.	.	.	.	.
.	.	.	.	12c/J	.	.	.	.	.	.	.	.	.	.	.	.	.
!	!	!	!	!LO:N:TREM:vis=4.	!	!	!	!	!	!	!	!	!	!	!	!	!
4r	.	.	.	12c/L	.	8f/L	.	.	.	.	.	8A\L	.	.	.	.	.
.	.	.	.	12c/	.	.	.	.	.	.	.	.	.	.	.	.	.
.	.	.	.	.	.	8en/J)	.	.	.	.	.	8G\J	.	.	.	.	.
.	.	.	.	12c/J	.	.	.	.	.	.	.	.	.	.	.	.	.
*	*	*	*	*Xtremolo	*	*	*	*	*	*	*	*	*	*	*	*	*
=42	=42	=42	=42	=42	=42	=42	=42	=42	=42	=42	=42	=42	=42	=42	=42	=42	=42
!	!	!	!	!	!	!	!	!	!	!	!	!LO:TX:t=P:problem=mixed beam	!	!	!	!	!
4F\	.	.	.	4c/	.	4f/	.	1r	.	1r	.	12A\L	.	.	.	.	.
.	.	.	.	.	.	.	.	.	.	.	.	12FF/	.	.	.	.	.
.	.	.	.	.	.	.	.	.	.	.	.	12AA/J	.	.	.	.	.
4r	.	.	.	4r	.	4r	.	.	.	.	.	12C/L	.	.	.	.	.
.	.	.	.	.	.	.	.	.	.	.	.	12AA/	.	.	.	.	.
.	.	.	.	.	.	.	.	.	.	.	.	12C/J	.	.	.	.	.
2r	.	.	.	2r	.	2r	.	.	.	.	.	12F\L	.	.	.	.	.
.	.	.	.	.	.	.	.	.	.	.	.	12C\	.	.	.	.	.
.	.	.	.	.	.	.	.	.	.	.	.	12F\J	.	.	.	.	.
.	.	.	.	.	.	.	.	.	.	.	.	12A\L	.	.	.	.	.
.	.	.	.	.	.	.	.	.	.	.	.	12F\	.	.	.	.	.
.	.	.	.	.	.	.	.	.	.	.	.	12c\J	.	.	.	.	.
=43	=43	=43	=43	=43	=43	=43	=43	=43	=43	=43	=43	=43	=43	=43	=43	=43	=43
*	*	*	*	*tremolo	*	*	*	*	*	*	*	*	*	*	*	*	*
!	!	!	!	!LO:N:TREM:vis=4.	!	!	!	!	!	!	!	!	!	!	!	!	!
4F\	.	.	.	12c/L	.	4a/	.	1r	.	1r	.	4f\	.	.	.	.	.
.	.	.	.	12c/	.	.	.	.	.	.	.	.	.	.	.	.	.
.	.	.	.	12c/J	.	.	.	.	.	.	.	.	.	.	.	.	.
!	!	!	!	!LO:N:TREM:vis=4.	!	!	!	!	!	!	!	!	!	!	!	!	!
4r	.	.	.	12c/L	.	2a/	.	.	.	.	.	2c\	.	.	.	.	.
.	.	.	.	12c/	.	.	.	.	.	.	.	.	.	.	.	.	.
.	.	.	.	12c/J	.	.	.	.	.	.	.	.	.	.	.	.	.
!	!	!	!	!LO:N:TREM:vis=2.	!	!	!	!	!	!	!	!	!	!	!	!	!
4FF/	.	.	.	12c/L	.	.	.	.	.	.	.	.	.	.	.	.	.
.	.	.	.	12c/	.	.	.	.	.	.	.	.	.	.	.	.	.
.	.	.	.	12c/	.	.	.	.	.	.	.	.	.	.	.	.	.
4r	.	.	.	12c/	.	8g/L	.	.	.	.	.	8B-\L	.	.	.	.	.
.	.	.	.	12c/	.	.	.	.	.	.	.	.	.	.	.	.	.
.	.	.	.	.	.	8f/J	.	.	.	.	.	8A\J	.	.	.	.	.
.	.	.	.	12c/J	.	.	.	.	.	.	.	.	.	.	.	.	.
*	*	*	*	*Xtremolo	*	*	*	*	*	*	*	*	*	*	*	*	*
=44	=44	=44	=44	=44	=44	=44	=44	=44	=44	=44	=44	=44	=44	=44	=44	=44	=44
.	.	.	.	.	.	.	.	.	.	.	.	8qqc#/	.	.	.	.	.
4BB-/	.	.	.	8r	.	8r	.	1r	.	1r	.	4d\	.	.	.	.	.
.	.	.	.	8f/L	.	(8dd'\L	.	.	.	.	.	.	.	.	.	.	.
4r	.	.	.	8f/	.	8dd'\	.	.	.	.	.	4.d\	.	.	.	.	.
.	.	.	.	8f/J	.	8dd'\J)	.	.	.	.	.	.	.	.	.	.	.
4B-\	.	.	.	4f/	.	4dd\	.	.	.	.	.	.	.	.	.	.	.
.	.	.	.	.	.	.	.	.	.	.	.	8en\L	.	.	.	.	.
4r	.	.	.	4r	.	4r	.	.	.	.	.	8f\	.	.	.	.	.
.	.	.	.	.	.	.	.	.	.	.	.	8d\J	.	.	.	.	.
!	!	!	!	!	!	!LO:LB:g=original	!	!	!	!	!	!	!	!	!	!	!
=45	=45	=45	=45	=45	=45	=45	=45	=45	=45	=45	=45	=45	=45	=45	=45	=45	=45
.	.	.	.	.	.	.	.	.	.	.	.	8qqf/	.	.	.	.	.
4BB-/	.	00r	.	8r	.	8r	.	1r	.	1r	.	4en\	.	00r	.	00r	.
.	.	.	.	8g/L	.	8een'\L	.	.	.	.	.	.	.	.	.	.	.
4r	.	.	.	8g/	.	8ee'\	.	.	.	.	.	2e\	.	.	.	.	.
.	.	.	.	8g/J	.	8ee'\J	.	.	.	.	.	.	.	.	.	.	.
2r	.	.	.	4g/	.	4ee\	.	.	.	.	.	.	.	.	.	.	.
!	!	!	!	!	!	!	!	!	!	!	!	!LO:LB:g=original	!	!	!	!	!
.	.	.	.	4r	.	4r	.	.	.	.	.	8g\L	.	.	.	.	.
.	.	.	.	.	.	.	.	.	.	.	.	8e\J	.	.	.	.	.
=46	=46	=46	=46	=46	=46	=46	=46	=46	=46	=46	=46	=46	=46	=46	=46	=46	=46
!	!	!	!	!LO:TX:a:t=a	!	!	!	!	!	!	!	!	!	!	!	!	!
4FF/	.	.	.	4a\	.	(4ff\	.	1r	.	1r	.	8f'\L	.	.	.	.	.
.	.	.	.	.	.	.	.	.	.	.	.	8f'\	.	.	.	.	.
!	!	!	!	!	!	!LO:SIC:v:s=4een\	!	!	!	!	!	!	!	!	!	!	!
4r	.	.	.	(4cc\	.	4ee-\	.	.	.	.	.	8en'\	.	.	.	.	.
.	.	.	.	.	.	.	.	.	.	.	.	8e'\J	.	.	.	.	.
2r	.	.	.	4b-\	.	4dd\	.	.	.	.	.	8d'\L	.	.	.	.	.
.	.	.	.	.	.	.	.	.	.	.	.	8d'\	.	.	.	.	.
.	.	.	.	4a\)	.	4cc#X\)	.	.	.	.	.	8c#X'\	.	.	.	.	.
.	.	.	.	.	.	.	.	.	.	.	.	8c#'\J	.	.	.	.	.
!LO:LB:g=original	!	!	!	!LO:LB:g=original	!	!	!	!	!	!	!	!	!	!	!	!	!
=47	=47	=47	=47	=47	=47	=47	=47	=47	=47	=47	=47	=47	=47	=47	=47	=47	=47
*	*	*	*	*^	*	*	*	*	*	*	*	*	*	*	*	*	*
.	.	.	.	.	.	.	.	.	.	.	.	.	8qqc#X/	.	.	.	.	.
4BB-X/	.	.	.	8r	8ryy	.	8r	.	1r	.	1r	.	4d\	.	.	.	.	.
.	.	.	.	8b-X/L	8g\L	.	(8dd'\L	.	.	.	.	.	.	.	.	.	.	.
4r	.	.	.	8b-/	8g\	.	8dd'\	.	.	.	.	.	2d\	.	.	.	.	.
.	.	.	.	8b-/J	8g\J	.	8dd'\J)	.	.	.	.	.	.	.	.	.	.	.
2r	.	.	.	4b-/	4g\	.	4dd\	.	.	.	.	.	.	.	.	.	.	.
.	.	.	.	4r	4ryy	.	4r	.	.	.	.	.	16cn\LL	.	.	.	.	.
.	.	.	.	.	.	.	.	.	.	.	.	.	16B-\	.	.	.	.	.
.	.	.	.	.	.	.	.	.	.	.	.	.	16A\	.	.	.	.	.
.	.	.	.	.	.	.	.	.	.	.	.	.	16G\JJ	.	.	.	.	.
=48	=48	=48	=48	=48	=48	=48	=48	=48	=48	=48	=48	=48	=48	=48	=48	=48	=48	=48
4BB-/	.	.	.	8r	8ryy	.	8r	.	1r	.	1r	.	4D/	.	.	.	.	.
.	.	.	.	8b-/L	8g\L	.	(8dd'\L	.	.	.	.	.	.	.	.	.	.	.
4r	.	.	.	8b-/	8g\	.	8dd'\	.	.	.	.	.	2d\	.	.	.	.	.
.	.	.	.	8b-/J	8g\J	.	8dd'\J)	.	.	.	.	.	.	.	.	.	.	.
2r	.	.	.	4b-/	4g\	.	4dd\	.	.	.	.	.	.	.	.	.	.	.
.	.	.	.	4r	4ryy	.	4r	.	.	.	.	.	16cn\LL	.	.	.	.	.
.	.	.	.	.	.	.	.	.	.	.	.	.	16B-\	.	.	.	.	.
.	.	.	.	.	.	.	.	.	.	.	.	.	16A\	.	.	.	.	.
.	.	.	.	.	.	.	.	.	.	.	.	.	16G\JJ	.	.	.	.	.
*	*	*	*	*v	*v	*	*	*	*	*	*	*	*	*	*	*	*	*
=49	=49	=49	=49	=49	=49	=49	=49	=49	=49	=49	=49	=49	=49	=49	=49	=49	=49
.	.	.	.	.	.	.	.	.	.	.	.	(<8qqA/	.	.	.	.	.
!	!	!	!	!	!	!	!	!	!LO:DY:t=p&colon;	!	!	!	!	!	!	!	!
4c\	.	0r	.	8r	.	8r	.	(<1cc	p	1cc	p	4.c\)	.	1r	.	1r	.
.	.	.	.	8f/L	.	8a/L	.	.	.	.	.	.	.	.	.	.	.
4c\	.	.	.	8f/	.	8a/	.	.	.	.	.	.	.	.	.	.	.
.	.	.	.	8f/J	.	8a/J	.	.	.	.	.	16A\LL	.	.	.	.	.
.	.	.	.	.	.	.	.	.	.	.	.	16F\JJ	.	.	.	.	.
*	*	*	*	*	*	*tremolo	*	*	*	*	*	*	*	*	*	*	*
4C/	.	.	.	8f/L	.	8g/L	.	.	.	.	.	2GT\	.	.	.	.	.
.	.	.	.	8f/	.	8g/	.	.	.	.	.	.	.	.	.	.	.
4C/	.	.	.	8en/	.	8g/	.	.	.	.	.	.	.	.	.	.	.
!	!	!	!	!LO:TX:b:i:t=Vol Sub	!	!	!	!	!	!	!	!	!	!	!	!	!
.	.	.	.	8e/J	.	8g/J	.	.	.	.	.	.	.	.	.	.	.
*	*	*	*	*	*	*Xtremolo	*	*	*	*	*	*	*	*	*	*	*
!	!	!	!	!LO:PB:g=original	!	!	!	!	!	!	!	!LO:LB:g=original	!	!	!	!	!
=50	=50	=50	=50	=50	=50	=50	=50	=50	=50	=50	=50	=50	=50	=50	=50	=50	=50
!	!	!	!	!	!LO:DY:t=p&colon;	!	!	!	!	!	!	!	!	!	!	!	!
4F\	.	.	.	12f/L	p	12a/L	p	4f/)	.	4ff\	.	4F\	.	12ff\L	p	12aa\L	p
.	.	.	.	12g/	.	12b-/	.	.	.	.	.	.	.	12gg\	.	12bb-\	.
.	.	.	.	12a/J	.	12cc/J	.	.	.	.	.	.	.	12aa\J	.	12ccc\J	.
4r	.	.	.	12a/L	.	12cc/L	.	4r	.	4r	.	4r	.	12aa\L	.	12ccc\L	.
.	.	.	.	12a/	.	12cc/	.	.	.	.	.	.	.	12aa\	.	12ccc\	.
.	.	.	.	12a/J	.	12cc/J	.	.	.	.	.	.	.	12aa\J	.	12ccc\J	.
.	.	.	.	(8qqb-/	.	8qqdd/	.	.	.	.	.	.	.	.	.	.	.
2r	.	.	.	12a/L)	.	12cc\L	.	2f/	.	2ff\	.	2r	.	4aa\	.	4ccc\	.
.	.	.	.	12g/	.	12b-\	.	.	.	.	.	.	.	.	.	.	.
.	.	.	.	12f/J	.	12a\J	.	.	.	.	.	.	.	.	.	.	.
!	!	!	!	!	!	!LO:LB:g=original	!	!	!	!	!	!	!	!	!	!	!
.	.	.	.	8qqb-/	.	8qqdd/	.	.	.	.	.	.	.	.	.	.	.
.	.	.	.	12a/L	.	12cc\L	.	.	.	.	.	.	.	4r	.	4r	.
.	.	.	.	12g/	.	12b-\	.	.	.	.	.	.	.	.	.	.	.
.	.	.	.	12f/J	.	12a\J	.	.	.	.	.	.	.	.	.	.	.
=51	=51	=51	=51	=51	=51	=51	=51	=51	=51	=51	=51	=51	=51	=51	=51	=51	=51
!	!	!	!	!	!	!	!	!	!	!	!LO:DY:t=p&colon;	!LO:TX:a:t=5	!	!	!	!	!
4C/	.	4c\	.	12en/L	.	12g/L	.	4cc\	p	4cc\	p	00r	.	12een\L	.	12gg\L	.
.	.	.	.	12d/	.	12f/	.	.	.	.	.	.	.	12dd\	.	12ff\	.
.	.	.	.	12c/J	.	12en/J	.	.	.	.	.	.	.	12cc\J	.	12een\J	.
4r	.	4r	.	12c/L	.	12e/L	.	4r	.	4r	.	.	.	12cc\L	.	12ee\L	.
.	.	.	.	12c/	.	12e/	.	.	.	.	.	.	.	12cc\	.	12ee\	.
.	.	.	.	12c/J	.	12e/J	.	.	.	.	.	.	.	12cc\J	.	12ee\J	.
*	*	*	*	*	*	*	*	*2\right	*	*	*	*	*	*	*	*	*
4CC/	.	4C/	.	12g/L	.	12b-/L	.	(<2cc\	.	2cc\	.	.	.	4cc\	.	4ee\	.
.	.	.	.	12f/	.	12a/	.	.	.	.	.	.	.	.	.	.	.
.	.	.	.	12en/J	.	12g/J	.	.	.	.	.	.	.	.	.	.	.
*	*	*	*	*tremolo	*	*	*	*	*	*	*	*	*	*	*	*	*
!	!	!	!	!LO:N:TREM:vis=4.	!	!	!	!	!	!	!	!	!	!	!	!	!
4r	.	4r	.	12e/L	.	12g/L	.	.	.	.	.	.	.	4r	.	4r	.
.	.	.	.	12e/	.	12g/	.	.	.	.	.	.	.	.	.	.	.
.	.	.	.	12e/J	.	12g/J	.	.	.	.	.	.	.	.	.	.	.
*	*	*	*	*Xtremolo	*	*	*	*	*	*	*	*	*	*	*	*	*
=52	=52	=52	=52	=52	=52	=52	=52	=52	=52	=52	=52	=52	=52	=52	=52	=52	=52
4FF/	.	4F/	.	12f/L	.	12a/L	.	2f\)	.	2ff\	.	.	.	12ff\L	.	12aa\L	.
.	.	.	.	12g/	.	12b-/	.	.	.	.	.	.	.	12gg\	.	12bb-\	.
.	.	.	.	12a/J	.	12cc/J	.	.	.	.	.	.	.	12aa\J	.	12ccc\J	.
*	*	*	*	*tremolo	*	*	*	*	*	*	*	*	*	*	*	*	*
!	!	!	!	!LO:N:TREM:vis=4.	!	!	!	!	!	!	!	!	!	!	!	!	!
4r	.	4r	.	12a/L	.	12cc/L	.	.	.	.	.	.	.	12aa\L	.	12ccc\L	.
.	.	.	.	12a/	.	12cc/	.	.	.	.	.	.	.	12aa\	.	12ccc\	.
.	.	.	.	12a/J	.	12cc/J	.	.	.	.	.	.	.	12aa\J	.	12ccc\J	.
*	*	*	*	*Xtremolo	*	*	*	*	*	*	*	*	*	*	*	*	*
.	.	.	.	8qqb-/	.	8qqdd/	.	.	.	.	.	.	.	.	.	.	.
!	!	!	!	!	!	!	!	!	!	!	!	!	!	!	!	!LO:LB:g=original	!
2r	.	2r	.	12a/L	.	12cc/L	.	4r	.	4r	.	.	.	4aa\	.	4ccc\	.
.	.	.	.	12g/	.	12b-/	.	.	.	.	.	.	.	.	.	.	.
.	.	.	.	12f/J	.	12a/J	.	.	.	.	.	.	.	.	.	.	.
.	.	.	.	8qqb-/	.	8qqdd/	.	.	.	.	.	.	.	.	.	.	.
.	.	.	.	12a/L	.	12cc/L	.	4f/	.	4ff\	.	.	.	4r	.	4r	.
.	.	.	.	12g/	.	12b-/	.	.	.	.	.	.	.	.	.	.	.
.	.	.	.	12f/J	.	12a/J	.	.	.	.	.	.	.	.	.	.	.
!	!	!	!	!	!	!	!	!	!	!	!	!	!	!LO:LB:g=original	!	!	!
=53	=53	=53	=53	=53	=53	=53	=53	=53	=53	=53	=53	=53	=53	=53	=53	=53	=53
4C/	.	4c\	.	12en/L	.	12g/L	.	(<1cc	.	(<1cc	.	.	.	12een\L	.	12gg\L	.
.	.	.	.	12d/	.	12f/	.	.	.	.	.	.	.	12dd\	.	12ff\	.
!	!	!	!	!	!	!	!	!	!	!	!	!	!	!	!	!LO:TX:a:t=P:problem=♮ above	!
.	.	.	.	12c/J	.	12en/J	.	.	.	.	.	.	.	12cc\J	.	12een\J	.
*	*	*	*	*tremolo	*	*	*	*	*	*	*	*	*	*	*	*	*
!	!	!	!	!LO:N:TREM:vis=4.	!	!	!	!	!	!	!	!	!	!	!	!	!
4r	.	4r	.	12c/L	.	12e/L	.	.	.	.	.	.	.	12cc\L	.	12ee\L	.
.	.	.	.	12c/	.	12e/	.	.	.	.	.	.	.	12cc\	.	12ee\	.
.	.	.	.	12c/J	.	12e/J	.	.	.	.	.	.	.	12cc\J	.	12ee\J	.
*	*	*	*	*Xtremolo	*	*	*	*	*	*	*	*	*	*	*	*	*
4CC/	.	4C/	.	12g/L	.	12b-/L	.	.	.	.	.	.	.	4cc\	.	4ee\	.
.	.	.	.	12f/	.	12a/	.	.	.	.	.	.	.	.	.	.	.
.	.	.	.	12e/J	.	12g/J	.	.	.	.	.	.	.	.	.	.	.
*	*	*	*	*tremolo	*	*	*	*	*	*	*	*	*	*	*	*	*
!	!	!	!	!LO:N:TREM:vis=4.	!	!	!	!	!	!	!	!	!	!	!	!	!
4r	.	4r	.	12e/L	.	12g/L	.	.	.	.	.	.	.	4r	.	4r	.
.	.	.	.	12e/	.	12g/	.	.	.	.	.	.	.	.	.	.	.
.	.	.	.	12e/J	.	12g/J	.	.	.	.	.	.	.	.	.	.	.
*	*	*	*	*Xtremolo	*	*	*	*	*	*	*	*	*	*	*	*	*
!	!	!	!	!LO:LB:g=original	!	!LO:LB:g=original	!	!	!	!	!	!	!	!	!	!	!
=54	=54	=54	=54	=54	=54	=54	=54	=54	=54	=54	=54	=54	=54	=54	=54	=54	=54
4F\	.	4f\	p	12A/L	.	12f/L	.	4f/)	.	4ff\)	.	.	.	8.a/L	.	8.ff\L	.
.	.	.	.	12B-/	.	12g/	.	.	.	.	.	.	.	.	.	.	.
.	.	.	.	12c/J	.	12a/J	.	.	.	.	.	.	.	.	.	.	.
.	.	.	.	.	.	.	.	.	.	.	.	.	.	16cc/Jk	.	16aa\Jk	.
8r	.	8r	.	12B-/L	.	12g/L	.	4r	.	4r	.	.	.	12b-/L	.	12gg\L	pp
.	.	.	.	12A/	.	12f/	.	.	.	.	.	.	.	12a/	.	12ff\	.
8C/	.	8c\	.	.	.	.	.	.	.	.	.	.	.	.	.	.	.
.	.	.	.	12G/J	.	12en/J	.	.	.	.	.	.	.	12g/J	.	12een\J	.
4F\	.	4f\	.	12A/L	.	12f/L	.	4f/	.	4ff\	.	.	.	8.a/L	.	8.ff\L	.
.	.	.	.	12B-/	.	12g/	.	.	.	.	.	.	.	.	.	.	.
.	.	.	.	12c/J	.	12a/J	.	.	.	.	.	.	.	.	.	.	.
.	.	.	.	.	.	.	.	.	.	.	.	.	.	16cc/Jk	.	16aa\Jk	.
8r	.	8r	.	12B-/L	.	12g/L	.	4r	.	4r	.	.	.	12b-/L	.	12gg\L	.
.	.	.	.	12A/	.	12f/	.	.	.	.	.	.	.	12a/	.	12ff\	.
8C/	.	8c\	.	.	.	.	.	.	.	.	.	.	.	.	.	.	.
.	.	.	.	12G/J	.	12e/J	.	.	.	.	.	.	.	12g/J	.	12ee\J	.
!LO:LB:g=original	!	!LO:LB:g=original	!	!	!	!	!	!	!	!	!	!	!	!	!	!	!
=55	=55	=55	=55	=55	=55	=55	=55	=55	=55	=55	=55	=55	=55	=55	=55	=55	=55
!	!	!	!	!	!	!	!	!	!LO:DY:t=p&colon;	!	!	!	!	!	!	!LO:SIC:v:s=(2een\	!
(2C/	.	[2c	.	(2G/	pp	2en/	.	(2cc\	p	(2cc\	pp	1r	.	2g/	.	(2ee-\	.
!	!	!	!	!	!	!	!LO:DY:rj	!	!	!	!	!	!	!	!	!	!
4F\)	.	4c]	.	4A/)	.	4f/	pp	4f/)	.	4ff\)	.	.	.	4a/	.	4ff\)	.
4r	.	4r	.	4r	.	4r	.	4r	.	4r	.	.	.	4r	.	4r	.
=56	=56	=56	=56	=56	=56	=56	=56	=56	=56	=56	=56	=56	=56	=56	=56	=56	=56
!	!LO:DY:t=p&colon;	!LO:TX:a:t=28	!	!	!	!	!	!LO:TX:a:t=24	!	!LO:TX:a:t=24	!	!LO:TX:b:i:t=Solo	!	!LO:TX:a:t=3	!	!LO:TX:a:t=3	!
4FF/	p	00r	.	4r	p	4r	.	00r	.	00r	.	4FF/	.	0r	.	0r	.
4r	.	.	.	(4a/	.	(4ff\	.	.	.	.	.	(4F\	.	.	.	.	.
2r	.	.	.	4een\	.	4gg\	.	.	.	.	.	4GT\)	.	.	.	.	.
.	.	.	.	4ff\)	.	4aa\)	.	.	.	.	.	4A\	.	.	.	.	.
=57	=57	=57	=57	=57	=57	=57	=57	=57	=57	=57	=57	=57	=57	=57	=57	=57	=57
4CC/	.	.	.	4r	.	4r	.	.	.	.	.	4CC/	.	.	.	.	.
!	!	!	!	!LO:SIC:v:s=(4een\	!	!	!	!	!	!	!	!	!	!	!	!	!
4r	.	.	.	(4ee-\	.	(4gg\	.	.	.	.	.	(4G\	.	.	.	.	.
2r	.	.	.	4ff\	.	4aa\	.	.	.	.	.	4A\	.	.	.	.	.
.	.	.	.	4gg\)	.	4bb-\)	.	.	.	.	.	4B-\)	.	.	.	.	.
=58	=58	=58	=58	=58	=58	=58	=58	=58	=58	=58	=58	=58	=58	=58	=58	=58	=58
.	.	.	.	.	.	8qqbb-/	.	.	.	.	.	8qqB-/	.	.	.	.	.
*	*	*	*	*2\right	*	*	*	*	*	*	*	*	*	*	*	*	*
4FF/	.	.	.	2ff\	.	4aa\	.	.	.	.	.	4A\	.	1r	.	1r	.
4r	.	.	.	.	.	8gg\L	.	.	.	.	.	8G\L	.	.	.	.	.
.	.	.	.	.	.	8ff\J	.	.	.	.	.	8F\J	.	.	.	.	.
.	.	.	.	8qqee-/	.	8qqgg/	.	.	.	.	.	8qqg/	.	.	.	.	.
2r	.	.	.	4dd\	.	4ff\	.	.	.	.	.	4f\	.	.	.	.	.
.	.	.	.	8cc\L	.	8ee-\L	.	.	.	.	.	8e-\L	.	.	.	.	.
.	.	.	.	8b-\J	.	8dd\J	.	.	.	.	.	8d\J	.	.	.	.	.
=59	=59	=59	=59	=59	=59	=59	=59	=59	=59	=59	=59	=59	=59	=59	=59	=59	=59
4C/	.	.	.	4.a/	.	4.cc\	.	.	.	.	.	4.c\	.	4.aa\	.	(4.ccc\	.
4CC/	.	.	.	.	.	.	.	.	.	.	.	.	.	.	.	.	.
.	.	.	.	8g/	.	8b-T\	.	.	.	.	.	8B-\	.	8gg\	.	8bb-\	.
!LO:TX:t=P:problem=mixed beam	!	!	!	!	!	!	!	!	!	!	!	!	!	!	!	!	!
8FF/L	.	.	.	4f/	.	4a/	.	.	.	.	.	4A\	.	4ff\	.	4aa\)	.
8F\	.	.	.	.	.	.	.	.	.	.	.	.	.	.	.	.	.
8C\	.	.	.	4r	.	4r	.	.	.	.	.	4r	.	4r	.	4r	.
8AA\J	.	.	.	.	.	.	.	.	.	.	.	.	.	.	.	.	.
!	!	!	!	!	!	!LO:LB:g=original	!	!	!	!	!	!LO:LB:g=original	!	!	!	!LO:LB:g=original	!
=60	=60	=60	=60	=60	=60	=60	=60	=60	=60	=60	=60	=60	=60	=60	=60	=60	=60
!	!	!	!	!	!	!	!	!	!	!	!	!	!	!LO:TX:a:t=3	!	!LO:TX:a:t=3	!
4FF/	.	00r	.	8r	.	8r	.	00r	.	00r	.	4FF/	.	0r	.	0r	.
.	.	.	.	8a/L	.	(8cc'\L	.	.	.	.	.	.	.	.	.	.	.
4r	.	.	.	8a/	.	8cc'\	.	.	.	.	.	4.c\	.	.	.	.	.
.	.	.	.	8a/J	.	8cc'\J)	.	.	.	.	.	.	.	.	.	.	.
4F\	.	.	.	8r	.	8r	.	.	.	.	.	.	.	.	.	.	.
.	.	.	.	(8a/L	.	(8cc'\L	.	.	.	.	.	8A\L	.	.	.	.	.
4r	.	.	.	8b-/	.	8cc'\	.	.	.	.	.	8G\	.	.	.	.	.
.	.	.	.	8a/J)	.	8cc'\J)	.	.	.	.	.	8F\J	.	.	.	.	.
!	!	!	!	!LO:LB:g=original	!	!	!	!	!	!	!	!	!	!	!	!	!
=61	=61	=61	=61	=61	=61	=61	=61	=61	=61	=61	=61	=61	=61	=61	=61	=61	=61
.	.	.	.	.	.	.	.	.	.	.	.	8qqG/	.	.	.	.	.
4G\	.	.	.	8r	.	8r	.	.	.	.	.	8F\L	.	.	.	.	.
.	.	.	.	8g/L	.	(8cc'\L	.	.	.	.	.	8En\J	.	.	.	.	.
4r	.	.	.	8g/	.	8cc'\	.	.	.	.	.	2E\	.	.	.	.	.
.	.	.	.	8g/J	.	8cc'\J)	.	.	.	.	.	.	.	.	.	.	.
2r	.	.	.	8r	.	8r	.	.	.	.	.	.	.	.	.	.	.
.	.	.	.	8g/L	.	(8cc'\L	.	.	.	.	.	.	.	.	.	.	.
.	.	.	.	8g/	.	8cc'\	.	.	.	.	.	(16G\LL	.	.	.	.	.
.	.	.	.	.	.	.	.	.	.	.	.	16F\	.	.	.	.	.
.	.	.	.	8f/J	.	8cc'\J)	.	.	.	.	.	16E\	.	.	.	.	.
.	.	.	.	.	.	.	.	.	.	.	.	16D\JJ)	.	.	.	.	.
=62	=62	=62	=62	=62	=62	=62	=62	=62	=62	=62	=62	=62	=62	=62	=62	=62	=62
4C/	.	.	.	8r	.	8r	.	.	.	.	.	8C/L	.	1r	.	1r	.
.	.	.	.	8en/L	.	(8cc'\L	.	.	.	.	.	8CC/J	.	.	.	.	.
4r	.	.	.	8e/	.	8cc'\	.	.	.	.	.	4.g\	.	.	.	.	.
.	.	.	.	8e/J	.	8cc'\J)	.	.	.	.	.	.	.	.	.	.	.
4En\	.	.	.	8r	.	8r	.	.	.	.	.	.	.	.	.	.	.
.	.	.	.	8g/L	.	(8cc'\L	.	.	.	.	.	8en\L	.	.	.	.	.
4r	.	.	.	8g/	.	8cc'\	.	.	.	.	.	8c\	.	.	.	.	.
.	.	.	.	8g/J	.	8cc'\J)	.	.	.	.	.	8B-\J	.	.	.	.	.
=63	=63	=63	=63	=63	=63	=63	=63	=63	=63	=63	=63	=63	=63	=63	=63	=63	=63
4F\	.	.	.	4r	.	4r	.	.	.	.	.	(16B-\LL	.	4r	.	4r	.
.	.	.	.	.	.	.	.	.	.	.	.	16A\	.	.	.	.	.
.	.	.	.	.	.	.	.	.	.	.	.	16d\)	.	.	.	.	.
.	.	.	.	.	.	.	.	.	.	.	.	16c\JJ	.	.	.	.	.
4r	.	.	.	16f/LL	.	(16a/LL	.	.	.	.	.	4c\	.	(16ff\LL	.	(16aa\LL	.
.	.	.	.	16e-/	.	16g/	.	.	.	.	.	.	.	16een\	.	16gg\	.
.	.	.	.	16f/	.	16a/	.	.	.	.	.	.	.	16ff\	.	16aa\	.
.	.	.	.	16g/JJ	.	16b-/JJ)	.	.	.	.	.	.	.	16gg\JJ)	.	16bb-\JJ)	.
!	!	!	!	!	!	!	!	!	!	!	!	!	!	!	!	!	!LO:DY:t=p&colon;
4F\	.	.	.	(8a/L	.	8cc/L	.	.	.	.	.	2r	.	8aa\L	.	8ccc\L	p
.	.	.	.	8f/	.	8a/	.	.	.	.	.	.	.	8ff\	.	8aa\	.
4r	.	.	.	8g/	.	8b-/	.	.	.	.	.	.	.	8gg\	.	8bb-X\	.
.	.	.	.	8e-/J)	.	8g/J	.	.	.	.	.	.	.	8een\J	.	8gg\J	.
!LO:LB:g=original	!	!	!	!	!	!	!	!	!	!	!	!	!	!	!	!	!
=64	=64	=64	=64	=64	=64	=64	=64	=64	=64	=64	=64	=64	=64	=64	=64	=64	=64
4FF/	.	00r	.	8f/L	.	8f/L	.	00r	.	00r	.	8r	.	4ff\	.	4aa\	.
.	.	.	.	8f/	.	8cc/	.	.	.	.	.	8C\L	.	.	.	.	.
4r	.	.	.	8f/	.	8cc/	.	.	.	.	.	8F\	.	4r	.	4r	.
.	.	.	.	8f/J	.	8cc/J	.	.	.	.	.	8A\J	.	.	.	.	.
*	*	*	*	*	*	*tremolo	*	*	*	*	*	*	*	*	*	*	*
2r	.	.	.	8f/L	.	8cc\L	.	.	.	.	.	8c\L	.	2r	.	2r	.
.	.	.	.	(8f/	.	8cc\	.	.	.	.	.	8A\	.	.	.	.	.
.	.	.	.	8g/	.	8cc\	.	.	.	.	.	8G\	.	.	.	.	.
.	.	.	.	8a/J)	.	8cc\J	.	.	.	.	.	8F\J	.	.	.	.	.
*	*	*	*	*	*	*Xtremolo	*	*	*	*	*	*	*	*	*	*	*
!	!	!	!	!	!	!	!	!	!	!	!	!LO:LB:g=original	!	!	!	!	!
=65	=65	=65	=65	=65	=65	=65	=65	=65	=65	=65	=65	=65	=65	=65	=65	=65	=65
!	!	!	!	!	!	!	!	!	!	!	!	!	!	!LO:TX:a:t=1	!	!LO:TX:a:t=1	!
.	.	.	.	.	.	.	.	.	.	.	.	8qqG/	.	.	.	.	.
4C/	.	.	.	8r	.	8r	.	.	.	.	.	8F\L	.	1r	.	1r	.
.	.	.	.	8g/L	.	8cc\L	.	.	.	.	.	8En\J	.	.	.	.	.
4r	.	.	.	8g/	.	8cc\	.	.	.	.	.	2E\	.	.	.	.	.
.	.	.	.	8g/J	.	8cc\J	.	.	.	.	.	.	.	.	.	.	.
!	!	!	!	!	!	!LO:LB:g=original	!	!	!	!	!	!	!	!	!	!	!
2r	.	.	.	4g/	.	4cc\	.	.	.	.	.	.	.	.	.	.	.
.	.	.	.	4r	.	4r	.	.	.	.	.	(16G\LL	.	.	.	.	.
.	.	.	.	.	.	.	.	.	.	.	.	16A\)	.	.	.	.	.
.	.	.	.	.	.	.	.	.	.	.	.	16G\	.	.	.	.	.
.	.	.	.	.	.	.	.	.	.	.	.	16A\JJ	.	.	.	.	.
!	!	!	!	!	!	!	!	!	!	!	!	!	!	!LO:LB:g=original	!	!	!
=66	=66	=66	=66	=66	=66	=66	=66	=66	=66	=66	=66	=66	=66	=66	=66	=66	=66
4c\	.	.	.	4g/	.	4cc\	.	.	.	.	.	12B-\L	.	2r	.	2r	.
.	.	.	.	.	.	.	.	.	.	.	.	12A\	.	.	.	.	.
.	.	.	.	.	.	.	.	.	.	.	.	12G\J	.	.	.	.	.
4r	.	.	.	4r	.	4r	.	.	.	.	.	12F\L	.	.	.	.	.
!	!	!	!	!	!	!	!	!	!	!	!	!LO:TX:a:t=P:problem=♮ above	!	!	!	!	!
.	.	.	.	.	.	.	.	.	.	.	.	12En\	.	.	.	.	.
.	.	.	.	.	.	.	.	.	.	.	.	12D\J	.	.	.	.	.
!	!	!	!	!	!	!	!	!	!	!	!	!LO:TX:t=P:problem=mixed beam	!	!	!	!	!
2r	.	.	.	8r	.	8r	.	.	.	.	.	8C/L	.	8r	.	8r	.
.	.	.	.	8b-/L	.	(8dd\L	.	.	.	.	.	(8d\	.	8bb-\L	.	(8ddd\L	p
.	.	.	.	8a/	.	8cc\)	.	.	.	.	.	8c\	.	8aa\	.	8ccc\	.
.	.	.	.	8g/J	.	8b-|\J	.	.	.	.	.	8B-\J)	.	8gg\J	.	8bb-\J)	.
!	!	!	!	!LO:LB:g=original	!	!	!	!	!	!	!	!	!	!	!	!	!
=67	=67	=67	=67	=67	=67	=67	=67	=67	=67	=67	=67	=67	=67	=67	=67	=67	=67
.	.	.	.	.	.	.	.	.	.	.	.	(<8qqB-/	.	.	.	8qqbb-/	.
4r	.	.	.	8r	.	8r	.	.	.	.	.	8A\L)	.	4ff\	.	8aa\L	.
.	.	.	.	8f/L	.	(8a/L	.	.	.	.	.	16G\L	.	.	.	16gg\L	.
.	.	.	.	.	.	.	.	.	.	.	.	16F\JJ	.	.	.	16ff\JJ	.
8r	.	.	.	8a/	.	8cc/	.	.	.	.	.	4F\	.	4r	.	4ff\	.
8FF/	.	.	.	8f/J	.	8a/J)	.	.	.	.	.	.	.	.	.	.	.
(8F\L	.	.	.	8a/L	.	8cc|\L	.	.	.	.	.	2r	.	2r	.	2r	.
8E-X\	.	.	.	(8a/	.	(8cc\	.	.	.	.	.	.	.	.	.	.	.
8D\	.	.	.	8b-/	.	8dd\	.	.	.	.	.	.	.	.	.	.	.
8C\J)	.	.	.	8cc/J)	.	8ee-X\J)	.	.	.	.	.	.	.	.	.	.	.
!	!	!	!	!	!	!	!	!	!	!	!	!	!	!	!	!LO:LB:g=original	!
=68	=68	=68	=68	=68	=68	=68	=68	=68	=68	=68	=68	=68	=68	=68	=68	=68	=68
*	*	*	*	*tuplet	*	*tuplet	*	*	*	*	*	*	*	*	*	*	*
!	!	!	!	!LO:TUP:a:problem=klamra łukowa	!	!LO:TUP:a:problem=klamra łukowa	!	!	!	!	!	!	!	!LO:TX:a:t=12	!	!LO:TX:a:t=12	!
4BB-/	.	00r	.	12b-\L	.	12dd\L	.	00r	.	00r	.	2.f\	.	00r	.	00r	.
.	.	.	.	12cc\	.	12ee-\	.	.	.	.	.	.	.	.	.	.	.
.	.	.	.	12dd\J	.	12ff\J	.	.	.	.	.	.	.	.	.	.	.
*	*	*	*	*Xtuplet	*	*Xtuplet	*	*	*	*	*	*	*	*	*	*	*
4r	.	.	.	12dd\L	.	12ff'\L	.	.	.	.	.	.	.	.	.	.	.
.	.	.	.	12dd\	.	12ff'\	.	.	.	.	.	.	.	.	.	.	.
.	.	.	.	12dd\J	.	12ff'\J	.	.	.	.	.	.	.	.	.	.	.
2r	.	.	.	12b-\L	.	12dd\L	.	.	.	.	.	.	.	.	.	.	.
.	.	.	.	12cc\	.	12ee-\	.	.	.	.	.	.	.	.	.	.	.
.	.	.	.	12dd\J	.	12ff\J	.	.	.	.	.	.	.	.	.	.	.
*	*	*	*	*tremolo	*	*	*	*	*	*	*	*	*	*	*	*	*
!	!	!	!	!LO:N:TREM:vis=4.	!	!	!	!	!	!	!	!	!	!	!	!	!
.	.	.	.	12dd\L	.	12ff'\L	.	.	.	.	.	4B-\	.	.	.	.	.
.	.	.	.	12dd\	.	12ff'\	.	.	.	.	.	.	.	.	.	.	.
.	.	.	.	12dd\J	.	12ff'\J	.	.	.	.	.	.	.	.	.	.	.
*	*	*	*	*Xtremolo	*	*	*	*	*	*	*	*	*	*	*	*	*
=69	=69	=69	=69	=69	=69	=69	=69	=69	=69	=69	=69	=69	=69	=69	=69	=69	=69
.	.	.	.	.	.	.	.	.	.	.	.	8qqc/	.	.	.	.	.
4C/	.	.	.	12cc\L	.	12ee-X\L	.	.	.	.	.	8B-\L	.	.	.	.	.
.	.	.	.	12b-\	.	12dd\	.	.	.	.	.	.	.	.	.	.	.
.	.	.	.	.	.	.	.	.	.	.	.	8A\J	.	.	.	.	.
.	.	.	.	12a\J	.	12cc\J	.	.	.	.	.	.	.	.	.	.	.
*	*	*	*	*tremolo	*	*tremolo	*	*	*	*	*	*	*	*	*	*	*
!	!	!	!	!LO:N:TREM:vis=4.	!	!LO:N:TREM:vis=4.	!	!	!	!	!	!	!	!	!	!	!
4r	.	.	.	12a\L	.	12cc\L	.	.	.	.	.	4A\	.	.	.	.	.
.	.	.	.	12a\	.	12cc\	.	.	.	.	.	.	.	.	.	.	.
.	.	.	.	12a\J	.	12cc\J	.	.	.	.	.	.	.	.	.	.	.
*	*	*	*	*Xtremolo	*	*Xtremolo	*	*	*	*	*	*	*	*	*	*	*
2r	.	.	.	12cc\L	.	12ee-\L	.	.	.	.	.	2r	.	.	.	.	.
.	.	.	.	12b-\	.	12dd\	.	.	.	.	.	.	.	.	.	.	.
.	.	.	.	12a\J	.	12cc\J	.	.	.	.	.	.	.	.	.	.	.
*	*	*	*	*tremolo	*	*	*	*	*	*	*	*	*	*	*	*	*
!	!	!	!	!LO:N:TREM:vis=4.	!	!	!	!	!	!	!	!	!	!	!	!	!
.	.	.	.	12a\L	.	12cc\L	.	.	.	.	.	.	.	.	.	.	.
.	.	.	.	12a\	.	12cc\	.	.	.	.	.	.	.	.	.	.	.
.	.	.	.	12a\J	.	12cc\J	.	.	.	.	.	.	.	.	.	.	.
*	*	*	*	*Xtremolo	*	*	*	*	*	*	*	*	*	*	*	*	*
!	!	!	!	!	!	!LO:LB:g=original	!	!	!	!	!	!	!	!	!	!	!
=70	=70	=70	=70	=70	=70	=70	=70	=70	=70	=70	=70	=70	=70	=70	=70	=70	=70
4F\	.	.	.	12a/L	.	12cc\L	.	.	.	.	.	4.c\	.	.	.	.	.
.	.	.	.	12b-/	.	12dd\	.	.	.	.	.	.	.	.	.	.	.
.	.	.	.	12cc/J	.	12ee-\J	.	.	.	.	.	.	.	.	.	.	.
*	*	*	*	*tremolo	*	*	*	*	*	*	*	*	*	*	*	*	*
!	!	!	!	!LO:N:TREM:vis=4.	!	!	!	!	!	!	!	!	!	!	!	!	!
4r	.	.	.	12cc/L	.	12ee-\L	.	.	.	.	.	.	.	.	.	.	.
.	.	.	.	12cc/	.	12ee-\	.	.	.	.	.	.	.	.	.	.	.
.	.	.	.	.	.	.	.	.	.	.	.	8A\	.	.	.	.	.
.	.	.	.	12cc/J	.	12ee-\J	.	.	.	.	.	.	.	.	.	.	.
*	*	*	*	*Xtremolo	*	*	*	*	*	*	*	*	*	*	*	*	*
!	!	!	!	!	!	!	!	!	!	!	!	!LO:LB:g=original	!	!	!	!	!
2r	.	.	.	12a/L	.	12cc\L	.	.	.	.	.	8F\L	.	.	.	.	.
.	.	.	.	12b-/	.	12dd\	.	.	.	.	.	.	.	.	.	.	.
.	.	.	.	.	.	.	.	.	.	.	.	8A\	.	.	.	.	.
.	.	.	.	12cc/J	.	12ee-\J	.	.	.	.	.	.	.	.	.	.	.
*	*	*	*	*tremolo	*	*	*	*	*	*	*	*	*	*	*	*	*
!	!	!	!	!LO:N:TREM:vis=4.	!	!	!	!	!	!	!	!	!	!	!	!	!
.	.	.	.	12cc/L	.	12ee-\L	.	.	.	.	.	8c\	.	.	.	.	.
.	.	.	.	12cc/	.	12ee-\	.	.	.	.	.	.	.	.	.	.	.
.	.	.	.	.	.	.	.	.	.	.	.	8e-X\J	.	.	.	.	.
.	.	.	.	12cc/J	.	12ee-\J	.	.	.	.	.	.	.	.	.	.	.
*	*	*	*	*Xtremolo	*	*	*	*	*	*	*	*	*	*	*	*	*
=71	=71	=71	=71	=71	=71	=71	=71	=71	=71	=71	=71	=71	=71	=71	=71	=71	=71
.	.	.	.	.	.	.	.	.	.	.	.	8qqf/	.	.	.	.	.
*	*	*	*	*tuplet	*	*	*	*	*	*	*	*	*	*	*	*	*
!	!	!	!	!LO:TUP:a:problem=klamra łukowa	!	!	!	!	!	!	!	!	!	!	!	!	!
4BB-/	.	.	.	12b-\L	.	12dd\L	.	.	.	.	.	8e-\L	.	.	.	.	.
.	.	.	.	12cc\	.	12ee-\	.	.	.	.	.	.	.	.	.	.	.
.	.	.	.	.	.	.	.	.	.	.	.	8d\J	.	.	.	.	.
.	.	.	.	12dd\J	.	12ff\J	.	.	.	.	.	.	.	.	.	.	.
*	*	*	*	*Xtuplet	*	*	*	*	*	*	*	*	*	*	*	*	*
*	*	*	*	*tremolo	*	*	*	*	*	*	*	*	*	*	*	*	*
!	!	!	!	!LO:N:TREM:vis=4.	!	!	!	!	!	!	!	!	!	!	!	!	!
4r	.	.	.	12dd\L	.	12ff\L	.	.	.	.	.	4d\	.	.	.	.	.
.	.	.	.	12dd\	.	12ff\	.	.	.	.	.	.	.	.	.	.	.
.	.	.	.	12dd\J	.	12ff\J	.	.	.	.	.	.	.	.	.	.	.
*	*	*	*	*Xtremolo	*	*	*	*	*	*	*	*	*	*	*	*	*
2r	.	.	.	12dd\L	.	12ff\L	.	.	.	.	.	2r	.	.	.	.	.
.	.	.	.	12cc\	.	12ee-\	.	.	.	.	.	.	.	.	.	.	.
.	.	.	.	12b-\J	.	12dd\J	.	.	.	.	.	.	.	.	.	.	.
.	.	.	.	12dd\L	.	12ff\L	.	.	.	.	.	.	.	.	.	.	.
.	.	.	.	12cc\	.	12ee-\	.	.	.	.	.	.	.	.	.	.	.
.	.	.	.	12b-\J	.	12dd\J	.	.	.	.	.	.	.	.	.	.	.
!	!	!	!	!LO:LB:g=original	!	!	!	!	!	!	!	!	!	!	!	!	!
=72	=72	=72	=72	=72	=72	=72	=72	=72	=72	=72	=72	=72	=72	=72	=72	=72	=72
4BB-/	.	00r	.	12b-\L	.	12dd\L	.	00r	.	00r	.	4.F\	.	00r	.	00r	.
.	.	.	.	12cc\	.	12ee-\	.	.	.	.	.	.	.	.	.	.	.
.	.	.	.	12dd\J	.	12ff\J	.	.	.	.	.	.	.	.	.	.	.
4r	.	.	.	12dd\L	.	12ff\L	.	.	.	.	.	.	.	.	.	.	.
.	.	.	.	12ee-X\	.	12gg\	.	.	.	.	.	.	.	.	.	.	.
.	.	.	.	.	.	.	.	.	.	.	.	(16G\LL	.	.	.	.	.
.	.	.	.	12dd\J	.	12ff\J	.	.	.	.	.	.	.	.	.	.	.
.	.	.	.	.	.	.	.	.	.	.	.	16F\JJ)	.	.	.	.	.
4B-\	.	.	.	12dd\L	.	12ff\L	.	.	.	.	.	4.B-\	.	.	.	.	.
.	.	.	.	12cc\	.	12ee-\	.	.	.	.	.	.	.	.	.	.	.
.	.	.	.	12b-\J	.	12dd\J	.	.	.	.	.	.	.	.	.	.	.
4r	.	.	.	12dd\L	.	12ff\L	.	.	.	.	.	.	.	.	.	.	.
.	.	.	.	12cc\	.	12ee-\	.	.	.	.	.	.	.	.	.	.	.
.	.	.	.	.	.	.	.	.	.	.	.	8F\	.	.	.	.	.
.	.	.	.	12b-\J	.	12dd\J	.	.	.	.	.	.	.	.	.	.	.
=73	=73	=73	=73	=73	=73	=73	=73	=73	=73	=73	=73	=73	=73	=73	=73	=73	=73
4EE-X/	.	.	.	12b-\L	.	12ee-X\L	.	.	.	.	.	4.G\	.	.	.	.	.
.	.	.	.	12dd\	.	12ff\	.	.	.	.	.	.	.	.	.	.	.
.	.	.	.	12ee-X\J	.	12gg\J	.	.	.	.	.	.	.	.	.	.	.
4r	.	.	.	12ee-\L	.	12gg\L	.	.	.	.	.	.	.	.	.	.	.
.	.	.	.	12ff\	.	12aa-X\	.	.	.	.	.	.	.	.	.	.	.
.	.	.	.	.	.	.	.	.	.	.	.	(16A-X\LL	.	.	.	.	.
.	.	.	.	12ee-\J	.	12gg\J	.	.	.	.	.	.	.	.	.	.	.
.	.	.	.	.	.	.	.	.	.	.	.	16G\JJ)	.	.	.	.	.
!LO:LB:g=original	!	!	!	!	!	!	!	!	!	!	!	!	!	!	!	!	!
4E-X\	.	.	.	(8gg\L	.	(8bb-\L	.	.	.	.	.	4.B-\	.	.	.	.	.
.	.	.	.	8ee-\	.	8gg\)	.	.	.	.	.	.	.	.	.	.	.
4r	.	.	.	8gg\	.	(8bb-\	.	.	.	.	.	.	.	.	.	.	.
.	.	.	.	8ee-\J)	.	8gg\J)	.	.	.	.	.	8G\	.	.	.	.	.
!	!	!	!	!	!	!LO:LB:g=original	!	!	!	!	!	!	!	!	!	!	!
=74	=74	=74	=74	=74	=74	=74	=74	=74	=74	=74	=74	=74	=74	=74	=74	=74	=74
!	!	!	!	!	!	!LO:TX:t=P:problem=mixed beam	!	!	!	!	!	!	!	!	!	!	!
4F\	.	.	.	4dd\	.	8ff\L	.	.	.	.	.	8F\L	.	.	.	.	.
.	.	.	.	.	.	8d/	.	.	.	.	.	8B-\	.	.	.	.	.
4r	.	.	.	4r	.	8b-'/	.	.	.	.	.	8d\	.	.	.	.	.
.	.	.	.	.	.	8dd/J	.	.	.	.	.	8f\J	.	.	.	.	.
.	.	.	.	.	.	8qqdd/	.	.	.	.	.	8qqf/	.	.	.	.	.
4FF/	.	.	.	2f/	.	4cc\	.	.	.	.	.	4e-\	.	.	.	.	.
4r	.	.	.	.	.	8b-\L	.	.	.	.	.	8d\L	.	.	.	.	.
.	.	.	.	.	.	8an\J	.	.	.	.	.	8c\J	.	.	.	.	.
=75	=75	=75	=75	=75	=75	=75	=75	=75	=75	=75	=75	=75	=75	=75	=75	=75	=75
*	*	*	*	*	*	*tuplet	*	*	*	*	*	*	*	*	*	*	*
!	!	!	!	!	!	!LO:TUP:a:problem=klamra łukowa	!	!	!	!	!	!	!	!	!	!	!
4BB-/	.	.	.	4b-/	.	12b-\L	.	.	.	.	.	12d\L	.	.	.	.	.
.	.	.	.	.	.	12cc\	.	.	.	.	.	12e-\	.	.	.	.	.
.	.	.	.	.	.	12dd\J	.	.	.	.	.	12f\J	.	.	.	.	.
4r	.	.	.	4r	.	8dd'\L	.	.	.	.	.	8f\L	.	.	.	.	.
.	.	.	.	.	.	8dd'\J	.	.	.	.	.	8f\J	.	.	.	.	.
*	*	*	*	*	*	*Xtuplet	*	*	*	*	*	*	*	*	*	*	*
!	!	!	!	!	!	!	!	!	!	!	!	!LO:LB:g=original	!	!	!	!	!
4B-\	.	.	.	12b-\L	.	12dd\L	.	.	.	.	.	2f\	.	.	.	.	.
.	.	.	.	12cc\	.	12ee-\	.	.	.	.	.	.	.	.	.	.	.
.	.	.	.	12dd\J	.	12ff\J	.	.	.	.	.	.	.	.	.	.	.
4F\	.	.	.	12dd\L	.	12ff\L	.	.	.	.	.	.	.	.	.	.	.
.	.	.	.	12cc\	.	12ee-\	.	.	.	.	.	.	.	.	.	.	.
.	.	.	.	12b-\J	.	12dd\J	.	.	.	.	.	.	.	.	.	.	.
=76	=76	=76	=76	=76	=76	=76	=76	=76	=76	=76	=76	=76	=76	=76	=76	=76	=76
4BB-/	.	00r	.	12b-\L	.	12dd\L	.	00r	.	00r	.	4.F\	.	00r	.	00r	.
.	.	.	.	12cc\	.	12ee-\	.	.	.	.	.	.	.	.	.	.	.
.	.	.	.	12dd\J	.	12ff\J	.	.	.	.	.	.	.	.	.	.	.
4r	.	.	.	12dd\L	.	12ff\L	.	.	.	.	.	.	.	.	.	.	.
.	.	.	.	12ee-\	.	12gg\	.	.	.	.	.	.	.	.	.	.	.
.	.	.	.	.	.	.	.	.	.	.	.	16G\LL	.	.	.	.	.
.	.	.	.	12dd\J	.	12ff\J	.	.	.	.	.	.	.	.	.	.	.
.	.	.	.	.	.	.	.	.	.	.	.	16F\JJ	.	.	.	.	.
2r	.	.	.	12dd\L	.	12ff\L	.	.	.	.	.	4.B-\	.	.	.	.	.
.	.	.	.	12cc\	.	12ee-\	.	.	.	.	.	.	.	.	.	.	.
.	.	.	.	12b-\J	.	12dd\J	.	.	.	.	.	.	.	.	.	.	.
.	.	.	.	12dd\L	.	12ff\L	.	.	.	.	.	.	.	.	.	.	.
.	.	.	.	12cc\	.	12ee-\	.	.	.	.	.	.	.	.	.	.	.
.	.	.	.	.	.	.	.	.	.	.	.	8F\	.	.	.	.	.
.	.	.	.	12b-\J	.	12dd\J	.	.	.	.	.	.	.	.	.	.	.
!	!	!	!	!LO:LB:g=original	!	!	!	!	!	!	!	!	!	!	!	!	!
=77	=77	=77	=77	=77	=77	=77	=77	=77	=77	=77	=77	=77	=77	=77	=77	=77	=77
4E-\	.	.	.	12b-\L	.	12ee-X\L	.	.	.	.	.	4.G\	.	.	.	.	.
.	.	.	.	12dd\	.	12ff\	.	.	.	.	.	.	.	.	.	.	.
.	.	.	.	12ee-\J	.	12gg\J	.	.	.	.	.	.	.	.	.	.	.
4r	.	.	.	12ee-\L	.	12gg\L	.	.	.	.	.	.	.	.	.	.	.
.	.	.	.	12ff\	.	12aa-X\	.	.	.	.	.	.	.	.	.	.	.
.	.	.	.	.	.	.	.	.	.	.	.	(16A-X\LL	.	.	.	.	.
.	.	.	.	12ee-\J	.	12gg\J	.	.	.	.	.	.	.	.	.	.	.
.	.	.	.	.	.	.	.	.	.	.	.	16G\JJ)	.	.	.	.	.
2r	.	.	.	(8gg\L	.	(8bb-\L	.	.	.	.	.	4.B-\	.	.	.	.	.
.	.	.	.	8ee-\	.	8gg\)	.	.	.	.	.	.	.	.	.	.	.
.	.	.	.	8gg\	.	(8bb-\	.	.	.	.	.	.	.	.	.	.	.
.	.	.	.	8ee-\J)	.	8gg\J)	.	.	.	.	.	8G\	.	.	.	.	.
!	!	!	!	!	!	!LO:PB:g=original	!	!	!	!	!	!	!	!	!	!	!
=78	=78	=78	=78	=78	=78	=78	=78	=78	=78	=78	=78	=78	=78	=78	=78	=78	=78
!	!	!	!	!	!	!LO:TX:t=P:problem=mixed beam	!	!	!	!	!	!	!	!	!	!	!
4F\	.	.	.	4dd\	.	8ff\L	.	.	.	.	.	8F\L	.	.	.	.	.
.	.	.	.	.	.	8f/	.	.	.	.	.	8B-\	.	.	.	.	.
4r	.	.	.	4r	.	8b-/	.	.	.	.	.	8d\	.	.	.	.	.
.	.	.	.	.	.	8dd/J	.	.	.	.	.	8f\J	.	.	.	.	.
.	.	.	.	.	.	8qqdd/	.	.	.	.	.	8qqf/	.	.	.	.	.
4F\	.	.	.	[2f/	.	4cc\	.	.	.	.	.	4e-\	.	.	.	.	.
4FF/	.	.	.	.	.	8b-\L	.	.	.	.	.	8d\L	.	.	.	.	.
.	.	.	.	.	.	8an\J	.	.	.	.	.	8c\J	.	.	.	.	.
=79	=79	=79	=79	=79	=79	=79	=79	=79	=79	=79	=79	=79	=79	=79	=79	=79	=79
.	.	.	.	.	.	.	.	.	.	.	.	8qqe-/	.	.	.	.	.
4BB-/	.	.	.	4f/]	.	4b-\	.	.	.	.	.	8d\L	.	.	.	.	.
.	.	.	.	.	.	.	.	.	.	.	.	16c\L	.	.	.	.	.
.	.	.	.	.	.	.	.	.	.	.	.	16B-\JJ	.	.	.	.	.
4r	.	.	.	4r	.	4r	.	.	.	.	.	4B-\	.	.	.	.	.
*	*	*	*	*tuplet	*	*tuplet	*	*	*	*	*	*	*	*	*	*	*
!	!	!	!	!LO:TUP:a:problem=klamra łukowa	!LO:DY:t=pia	!LO:TUP:a:problem=klamra łukowa	!	!	!	!	!	!	!	!	!	!	!
2r	.	.	.	12b-\L	p	12dd\L	pp	.	.	.	.	2r	.	.	.	.	.
.	.	.	.	12cc\	.	12ee-X\	.	.	.	.	.	.	.	.	.	.	.
.	.	.	.	12dd\J	.	12ff\J	.	.	.	.	.	.	.	.	.	.	.
*	*	*	*	*Xtuplet	*	*Xtuplet	*	*	*	*	*	*	*	*	*	*	*
.	.	.	.	12dd'\L	.	12ff\L	.	.	.	.	.	.	.	.	.	.	.
.	.	.	.	12dd'\	.	12ff\	.	.	.	.	.	.	.	.	.	.	.
.	.	.	.	12dd'\J	.	12ff\J	.	.	.	.	.	.	.	.	.	.	.
!	!	!	!	!	!	!	!	!LO:LB:g=original	!	!LO:LB:g=original	!	!	!	!	!	!	!
=80	=80	=80	=80	=80	=80	=80	=80	=80	=80	=80	=80	=80	=80	=80	=80	=80	=80
.	.	.	.	8qqdd/	.	8qqff/	.	.	.	.	.	.	.	.	.	.	.
4F\	.	00r	.	12cc\L	.	12ee-\L	.	2r	.	2r	.	2r	.	2r	p	2r	.
.	.	.	.	12b-\	.	12dd\	.	.	.	.	.	.	.	.	.	.	.
.	.	.	.	12a\J	.	12cc\J	.	.	.	.	.	.	.	.	.	.	.
4r	p	.	.	12a\L	.	12cc\L	.	.	.	.	.	.	.	.	.	.	.
.	.	.	.	12a\	.	12cc\	.	.	.	.	.	.	.	.	.	.	.
.	.	.	.	12a\J	.	12cc\J	.	.	.	.	.	.	.	.	.	.	.
!	!	!	!	!	!	!	!	!	!LO:DY:t=p&colon;	!	!	!	!	!	!	!	!LO:DY:t=p&colon;
4FF/	.	.	.	2r	.	2r	.	2f/	p	(<2ff\	pp	(8e-X\L	p	(2cc\	.	(2ee-X\	p
.	.	.	.	.	.	.	.	.	.	.	.	8c\)	.	.	.	.	.
4r	.	.	.	.	.	.	.	.	.	.	.	(8c\	.	.	.	.	.
!	!	!	!	!	!	!	!	!	!	!	!	!LO:TX:a:t=P:problem=♮ above	!	!	!	!	!
.	.	.	.	.	.	.	.	.	.	.	.	8An\J)	.	.	.	.	.
!LO:LB:g=original	!	!	!	!	!	!	!	!	!	!	!	!LO:LB:g=original	!	!	!	!	!
=81	=81	=81	=81	=81	=81	=81	=81	=81	=81	=81	=81	=81	=81	=81	=81	=81	=81
.	.	.	.	.	.	.	.	.	.	.	.	8qqA/	.	.	.	.	.
4BB-/	.	.	.	2r	.	2r	.	4B-/	.	4b-\)	.	2B-\	.	2b-\)	.	2dd\)	.
4r	.	.	.	.	.	.	.	4r	.	4r	.	.	.	.	.	.	.
2r	.	.	.	12b-\L	pp	12dd\L	.	2r	.	2r	.	2r	.	2r	.	2r	.
.	.	.	.	12cc\	.	12ee-X\	.	.	.	.	.	.	.	.	.	.	.
.	.	.	.	12dd\J	.	12ff\J	.	.	.	.	.	.	.	.	.	.	.
.	.	.	.	12dd\L	.	12ff\L	.	.	.	.	.	.	.	.	.	.	.
.	.	.	.	12dd\	.	12ff\	.	.	.	.	.	.	.	.	.	.	.
.	.	.	.	12dd\J	.	12ff\J	.	.	.	.	.	.	.	.	.	.	.
=82	=82	=82	=82	=82	=82	=82	=82	=82	=82	=82	=82	=82	=82	=82	=82	=82	=82
.	.	.	.	8qqdd/	.	8qqff/	.	.	.	.	.	.	.	.	.	.	.
4F\	.	.	.	12cc\L	.	12ee-\L	.	2r	.	2r	.	2r	.	2r	.	2r	.
.	.	.	.	12b-\	.	12dd\	.	.	.	.	.	.	.	.	.	.	.
.	.	.	.	12a\J	.	12cc\J	.	.	.	.	.	.	.	.	.	.	.
4r	pp	.	.	12a\L	.	12cc\L	.	.	.	.	.	.	.	.	.	.	.
.	.	.	.	12a\	.	12cc\	.	.	.	.	.	.	.	.	.	.	.
.	.	.	.	12a\J	.	12cc\J	.	.	.	.	.	.	.	.	.	.	.
!	!	!	!	!	!	!	!	!	!	!LO:TX:a:i:t=Tutti	!	!	!	!	!	!	!
4FF/	.	.	.	2r	.	2r	.	2f/	.	(<2ff\	.	(8e-\L	pp	[2cc\	pp	[2ee-\	pp
.	.	.	.	.	.	.	.	.	.	.	.	8c\)	.	.	.	.	.
4r	.	.	.	.	.	.	.	.	.	.	.	(8c\	.	.	.	.	.
.	.	.	.	.	.	.	.	.	.	.	.	8A\J)	.	.	.	.	.
!	!	!	!	!	!	!LO:LB:g=original	!	!	!	!	!	!	!	!	!	!	!
=83	=83	=83	=83	=83	=83	=83	=83	=83	=83	=83	=83	=83	=83	=83	=83	=83	=83
(2FF/	.	.	.	(2e-/	p	(2an/	pp	2.B-/	pp	2.b-\)	pp	(2A\	.	(2cc\]	.	2ee-\]	.
4BB-/)	.	.	.	4d/)	.	4b-/)	.	.	.	.	.	4B-\)	.	4b-\)	.	4dd\	.
!LO:TX:b:i:t=Vol Sub	!	!	!	!	!	!	!	!LO:TX:b:i:t=V&colon; Sul	!	!LO:TX:b:i:t=V&colon; Sub	!	!	!	!	!	!	!
4r	.	.	.	4r	.	4r	.	4r	.	4r	.	4r	.	4r	.	4r	.
==	==	==	==	==	==	==	==	==	==	==	==	==	==	==	==	==	==
*-	*-	*-	*-	*-	*-	*-	*-	*-	*-	*-	*-	*-	*-	*-	*-	*-	*-
!!!system-decoration: [(g1)][(g2)][(g3)]
!!!RDF**kern: > = above
!!!RDF**kern: < = below
!!!RDF**kern: | = vertical stroke
!!!RDF**dynam: f = "for:"
!!!ENC: Andrzej Gręziak
!!!END: 2020-09-17
!!!ENC: Andrzej Kubiczek
!!!END: 2022-01-27
!!!YEC: Copyright 2022 Narodowy Instytut Fryderyka Chopina (https://polishscores.org)
!!!YEM: Licence CC BY 4.0 (https://creativecommons.org/licenses/by/4.0)
